(generated via gcode.py; do not edit)
(2023-04-29 14:28:34)
(-- prologue begin --)
G17 (Use XY plane)
G20 (Use inch)
G40 (Cancel cutter radius compensation)
G49 (Cancel tool length compensation)
G54 (Default coordinate system)
G80 (Cancel canned cycle)
G90 (Use absolute distance mode)
G94 (Units Per Minute feed rate mode)
G64 P0.001 (Enable path blending for best speed, with accuracy)
M3 (Spindle on clockwise)
(-- prologue end --)
G0 Z1.00000000
(Mounting hole x 0)
G0 X1.62500000 Y1.62500000
G0 Z0.10000000
F30.00000000
G1 X1.62500000 Y1.62500000
F10.00000000
G1 Z-0.05500000
F30.00000000
G1 X1.75000000 Y1.62500000
G3 X1.75000000 Y1.62500000 I-0.12500000 J0.00000000
G1 X1.87500000 Y1.62500000
G3 X1.87500000 Y1.62500000 I-0.25000000 J0.00000000
G1 X2.00000000 Y1.62500000
G3 X2.00000000 Y1.62500000 I-0.37500000 J0.00000000
F30.00000000
G1 X1.62500000 Y1.62500000
F10.00000000
G1 Z-0.15500000
F30.00000000
G1 X1.75000000 Y1.62500000
G3 X1.75000000 Y1.62500000 I-0.12500000 J0.00000000
G1 X1.87500000 Y1.62500000
G3 X1.87500000 Y1.62500000 I-0.25000000 J0.00000000
G1 X2.00000000 Y1.62500000
G3 X2.00000000 Y1.62500000 I-0.37500000 J0.00000000
F30.00000000
G1 X1.62500000 Y1.62500000
F10.00000000
G1 Z-0.25500000
F30.00000000
G1 X1.75000000 Y1.62500000
G3 X1.75000000 Y1.62500000 I-0.12500000 J0.00000000
G1 X1.87500000 Y1.62500000
G3 X1.87500000 Y1.62500000 I-0.25000000 J0.00000000
G1 X2.00000000 Y1.62500000
G3 X2.00000000 Y1.62500000 I-0.37500000 J0.00000000
F30.00000000
G1 X1.62500000 Y1.62500000
F10.00000000
G1 Z-0.35500000
F30.00000000
G1 X1.75000000 Y1.62500000
G3 X1.75000000 Y1.62500000 I-0.12500000 J0.00000000
G1 X1.87500000 Y1.62500000
G3 X1.87500000 Y1.62500000 I-0.25000000 J0.00000000
G1 X2.00000000 Y1.62500000
G3 X2.00000000 Y1.62500000 I-0.37500000 J0.00000000
F30.00000000
G1 X1.62500000 Y1.62500000
F10.00000000
G1 Z-0.45500000
F30.00000000
G1 X1.75000000 Y1.62500000
G3 X1.75000000 Y1.62500000 I-0.12500000 J0.00000000
G1 X1.87500000 Y1.62500000
G3 X1.87500000 Y1.62500000 I-0.25000000 J0.00000000
G1 X2.00000000 Y1.62500000
G3 X2.00000000 Y1.62500000 I-0.37500000 J0.00000000
F30.00000000
G1 X1.62500000 Y1.62500000
F10.00000000
G1 Z-0.55500000
F30.00000000
G1 X1.75000000 Y1.62500000
G3 X1.75000000 Y1.62500000 I-0.12500000 J0.00000000
G1 X1.87500000 Y1.62500000
G3 X1.87500000 Y1.62500000 I-0.25000000 J0.00000000
G1 X2.00000000 Y1.62500000
G3 X2.00000000 Y1.62500000 I-0.37500000 J0.00000000
F30.00000000
G1 X1.62500000 Y1.62500000
F10.00000000
G1 Z-0.65500000
F30.00000000
G1 X1.75000000 Y1.62500000
G3 X1.75000000 Y1.62500000 I-0.12500000 J0.00000000
G1 X1.87500000 Y1.62500000
G3 X1.87500000 Y1.62500000 I-0.25000000 J0.00000000
G1 X2.00000000 Y1.62500000
G3 X2.00000000 Y1.62500000 I-0.37500000 J0.00000000
F30.00000000
G1 X1.62500000 Y1.62500000
F10.00000000
G1 Z-0.75500000
F30.00000000
G1 X1.75000000 Y1.62500000
G3 X1.75000000 Y1.62500000 I-0.12500000 J0.00000000
G1 X1.87500000 Y1.62500000
G3 X1.87500000 Y1.62500000 I-0.25000000 J0.00000000
G1 X2.00000000 Y1.62500000
G3 X2.00000000 Y1.62500000 I-0.37500000 J0.00000000
G1 Z0.10000000
G0 Z1.00000000
(Screw hole x 0)
G0 X3.62500000 Y1.62500000
G0 Z0.10000000
F30.00000000
G1 X3.62500000 Y1.62500000
F10.00000000
G1 Z-0.05500000
F30.00000000
G1 X3.75000000 Y1.62500000
G3 X3.75000000 Y1.62500000 I-0.12500000 J0.00000000
F30.00000000
G1 X3.62500000 Y1.62500000
F10.00000000
G1 Z-0.15500000
F30.00000000
G1 X3.75000000 Y1.62500000
G3 X3.75000000 Y1.62500000 I-0.12500000 J0.00000000
F30.00000000
G1 X3.62500000 Y1.62500000
F10.00000000
G1 Z-0.25500000
F30.00000000
G1 X3.75000000 Y1.62500000
G3 X3.75000000 Y1.62500000 I-0.12500000 J0.00000000
F30.00000000
G1 X3.62500000 Y1.62500000
F10.00000000
G1 Z-0.35500000
F30.00000000
G1 X3.75000000 Y1.62500000
G3 X3.75000000 Y1.62500000 I-0.12500000 J0.00000000
F30.00000000
G1 X3.62500000 Y1.62500000
F10.00000000
G1 Z-0.45500000
F30.00000000
G1 X3.75000000 Y1.62500000
G3 X3.75000000 Y1.62500000 I-0.12500000 J0.00000000
F30.00000000
G1 X3.62500000 Y1.62500000
F10.00000000
G1 Z-0.55500000
F30.00000000
G1 X3.75000000 Y1.62500000
G3 X3.75000000 Y1.62500000 I-0.12500000 J0.00000000
F30.00000000
G1 X3.62500000 Y1.62500000
F10.00000000
G1 Z-0.65500000
F30.00000000
G1 X3.75000000 Y1.62500000
G3 X3.75000000 Y1.62500000 I-0.12500000 J0.00000000
F30.00000000
G1 X3.62500000 Y1.62500000
F10.00000000
G1 Z-0.75500000
F30.00000000
G1 X3.75000000 Y1.62500000
G3 X3.75000000 Y1.62500000 I-0.12500000 J0.00000000
G1 Z0.10000000
G0 Z1.00000000
(Mounting hole x 1)
G0 X5.62500000 Y1.62500000
G0 Z0.10000000
F30.00000000
G1 X5.62500000 Y1.62500000
F10.00000000
G1 Z-0.05500000
F30.00000000
G1 X5.75000000 Y1.62500000
G3 X5.75000000 Y1.62500000 I-0.12500000 J0.00000000
G1 X5.87500000 Y1.62500000
G3 X5.87500000 Y1.62500000 I-0.25000000 J0.00000000
G1 X6.00000000 Y1.62500000
G3 X6.00000000 Y1.62500000 I-0.37500000 J0.00000000
F30.00000000
G1 X5.62500000 Y1.62500000
F10.00000000
G1 Z-0.15500000
F30.00000000
G1 X5.75000000 Y1.62500000
G3 X5.75000000 Y1.62500000 I-0.12500000 J0.00000000
G1 X5.87500000 Y1.62500000
G3 X5.87500000 Y1.62500000 I-0.25000000 J0.00000000
G1 X6.00000000 Y1.62500000
G3 X6.00000000 Y1.62500000 I-0.37500000 J0.00000000
F30.00000000
G1 X5.62500000 Y1.62500000
F10.00000000
G1 Z-0.25500000
F30.00000000
G1 X5.75000000 Y1.62500000
G3 X5.75000000 Y1.62500000 I-0.12500000 J0.00000000
G1 X5.87500000 Y1.62500000
G3 X5.87500000 Y1.62500000 I-0.25000000 J0.00000000
G1 X6.00000000 Y1.62500000
G3 X6.00000000 Y1.62500000 I-0.37500000 J0.00000000
F30.00000000
G1 X5.62500000 Y1.62500000
F10.00000000
G1 Z-0.35500000
F30.00000000
G1 X5.75000000 Y1.62500000
G3 X5.75000000 Y1.62500000 I-0.12500000 J0.00000000
G1 X5.87500000 Y1.62500000
G3 X5.87500000 Y1.62500000 I-0.25000000 J0.00000000
G1 X6.00000000 Y1.62500000
G3 X6.00000000 Y1.62500000 I-0.37500000 J0.00000000
F30.00000000
G1 X5.62500000 Y1.62500000
F10.00000000
G1 Z-0.45500000
F30.00000000
G1 X5.75000000 Y1.62500000
G3 X5.75000000 Y1.62500000 I-0.12500000 J0.00000000
G1 X5.87500000 Y1.62500000
G3 X5.87500000 Y1.62500000 I-0.25000000 J0.00000000
G1 X6.00000000 Y1.62500000
G3 X6.00000000 Y1.62500000 I-0.37500000 J0.00000000
F30.00000000
G1 X5.62500000 Y1.62500000
F10.00000000
G1 Z-0.55500000
F30.00000000
G1 X5.75000000 Y1.62500000
G3 X5.75000000 Y1.62500000 I-0.12500000 J0.00000000
G1 X5.87500000 Y1.62500000
G3 X5.87500000 Y1.62500000 I-0.25000000 J0.00000000
G1 X6.00000000 Y1.62500000
G3 X6.00000000 Y1.62500000 I-0.37500000 J0.00000000
F30.00000000
G1 X5.62500000 Y1.62500000
F10.00000000
G1 Z-0.65500000
F30.00000000
G1 X5.75000000 Y1.62500000
G3 X5.75000000 Y1.62500000 I-0.12500000 J0.00000000
G1 X5.87500000 Y1.62500000
G3 X5.87500000 Y1.62500000 I-0.25000000 J0.00000000
G1 X6.00000000 Y1.62500000
G3 X6.00000000 Y1.62500000 I-0.37500000 J0.00000000
F30.00000000
G1 X5.62500000 Y1.62500000
F10.00000000
G1 Z-0.75500000
F30.00000000
G1 X5.75000000 Y1.62500000
G3 X5.75000000 Y1.62500000 I-0.12500000 J0.00000000
G1 X5.87500000 Y1.62500000
G3 X5.87500000 Y1.62500000 I-0.25000000 J0.00000000
G1 X6.00000000 Y1.62500000
G3 X6.00000000 Y1.62500000 I-0.37500000 J0.00000000
G1 Z0.10000000
G0 Z1.00000000
(Screw hole x 1)
G0 X7.62500000 Y1.62500000
G0 Z0.10000000
F30.00000000
G1 X7.62500000 Y1.62500000
F10.00000000
G1 Z-0.05500000
F30.00000000
G1 X7.75000000 Y1.62500000
G3 X7.75000000 Y1.62500000 I-0.12500000 J0.00000000
F30.00000000
G1 X7.62500000 Y1.62500000
F10.00000000
G1 Z-0.15500000
F30.00000000
G1 X7.75000000 Y1.62500000
G3 X7.75000000 Y1.62500000 I-0.12500000 J0.00000000
F30.00000000
G1 X7.62500000 Y1.62500000
F10.00000000
G1 Z-0.25500000
F30.00000000
G1 X7.75000000 Y1.62500000
G3 X7.75000000 Y1.62500000 I-0.12500000 J0.00000000
F30.00000000
G1 X7.62500000 Y1.62500000
F10.00000000
G1 Z-0.35500000
F30.00000000
G1 X7.75000000 Y1.62500000
G3 X7.75000000 Y1.62500000 I-0.12500000 J0.00000000
F30.00000000
G1 X7.62500000 Y1.62500000
F10.00000000
G1 Z-0.45500000
F30.00000000
G1 X7.75000000 Y1.62500000
G3 X7.75000000 Y1.62500000 I-0.12500000 J0.00000000
F30.00000000
G1 X7.62500000 Y1.62500000
F10.00000000
G1 Z-0.55500000
F30.00000000
G1 X7.75000000 Y1.62500000
G3 X7.75000000 Y1.62500000 I-0.12500000 J0.00000000
F30.00000000
G1 X7.62500000 Y1.62500000
F10.00000000
G1 Z-0.65500000
F30.00000000
G1 X7.75000000 Y1.62500000
G3 X7.75000000 Y1.62500000 I-0.12500000 J0.00000000
F30.00000000
G1 X7.62500000 Y1.62500000
F10.00000000
G1 Z-0.75500000
F30.00000000
G1 X7.75000000 Y1.62500000
G3 X7.75000000 Y1.62500000 I-0.12500000 J0.00000000
G1 Z0.10000000
G0 Z1.00000000
(Mounting hole x 2)
G0 X9.62500000 Y1.62500000
G0 Z0.10000000
F30.00000000
G1 X9.62500000 Y1.62500000
F10.00000000
G1 Z-0.05500000
F30.00000000
G1 X9.75000000 Y1.62500000
G3 X9.75000000 Y1.62500000 I-0.12500000 J0.00000000
G1 X9.87500000 Y1.62500000
G3 X9.87500000 Y1.62500000 I-0.25000000 J0.00000000
G1 X10.00000000 Y1.62500000
G3 X10.00000000 Y1.62500000 I-0.37500000 J0.00000000
F30.00000000
G1 X9.62500000 Y1.62500000
F10.00000000
G1 Z-0.15500000
F30.00000000
G1 X9.75000000 Y1.62500000
G3 X9.75000000 Y1.62500000 I-0.12500000 J0.00000000
G1 X9.87500000 Y1.62500000
G3 X9.87500000 Y1.62500000 I-0.25000000 J0.00000000
G1 X10.00000000 Y1.62500000
G3 X10.00000000 Y1.62500000 I-0.37500000 J0.00000000
F30.00000000
G1 X9.62500000 Y1.62500000
F10.00000000
G1 Z-0.25500000
F30.00000000
G1 X9.75000000 Y1.62500000
G3 X9.75000000 Y1.62500000 I-0.12500000 J0.00000000
G1 X9.87500000 Y1.62500000
G3 X9.87500000 Y1.62500000 I-0.25000000 J0.00000000
G1 X10.00000000 Y1.62500000
G3 X10.00000000 Y1.62500000 I-0.37500000 J0.00000000
F30.00000000
G1 X9.62500000 Y1.62500000
F10.00000000
G1 Z-0.35500000
F30.00000000
G1 X9.75000000 Y1.62500000
G3 X9.75000000 Y1.62500000 I-0.12500000 J0.00000000
G1 X9.87500000 Y1.62500000
G3 X9.87500000 Y1.62500000 I-0.25000000 J0.00000000
G1 X10.00000000 Y1.62500000
G3 X10.00000000 Y1.62500000 I-0.37500000 J0.00000000
F30.00000000
G1 X9.62500000 Y1.62500000
F10.00000000
G1 Z-0.45500000
F30.00000000
G1 X9.75000000 Y1.62500000
G3 X9.75000000 Y1.62500000 I-0.12500000 J0.00000000
G1 X9.87500000 Y1.62500000
G3 X9.87500000 Y1.62500000 I-0.25000000 J0.00000000
G1 X10.00000000 Y1.62500000
G3 X10.00000000 Y1.62500000 I-0.37500000 J0.00000000
F30.00000000
G1 X9.62500000 Y1.62500000
F10.00000000
G1 Z-0.55500000
F30.00000000
G1 X9.75000000 Y1.62500000
G3 X9.75000000 Y1.62500000 I-0.12500000 J0.00000000
G1 X9.87500000 Y1.62500000
G3 X9.87500000 Y1.62500000 I-0.25000000 J0.00000000
G1 X10.00000000 Y1.62500000
G3 X10.00000000 Y1.62500000 I-0.37500000 J0.00000000
F30.00000000
G1 X9.62500000 Y1.62500000
F10.00000000
G1 Z-0.65500000
F30.00000000
G1 X9.75000000 Y1.62500000
G3 X9.75000000 Y1.62500000 I-0.12500000 J0.00000000
G1 X9.87500000 Y1.62500000
G3 X9.87500000 Y1.62500000 I-0.25000000 J0.00000000
G1 X10.00000000 Y1.62500000
G3 X10.00000000 Y1.62500000 I-0.37500000 J0.00000000
F30.00000000
G1 X9.62500000 Y1.62500000
F10.00000000
G1 Z-0.75500000
F30.00000000
G1 X9.75000000 Y1.62500000
G3 X9.75000000 Y1.62500000 I-0.12500000 J0.00000000
G1 X9.87500000 Y1.62500000
G3 X9.87500000 Y1.62500000 I-0.25000000 J0.00000000
G1 X10.00000000 Y1.62500000
G3 X10.00000000 Y1.62500000 I-0.37500000 J0.00000000
G1 Z0.10000000
G0 Z1.00000000
(Screw hole x 2)
G0 X11.62500000 Y1.62500000
G0 Z0.10000000
F30.00000000
G1 X11.62500000 Y1.62500000
F10.00000000
G1 Z-0.05500000
F30.00000000
G1 X11.75000000 Y1.62500000
G3 X11.75000000 Y1.62500000 I-0.12500000 J0.00000000
F30.00000000
G1 X11.62500000 Y1.62500000
F10.00000000
G1 Z-0.15500000
F30.00000000
G1 X11.75000000 Y1.62500000
G3 X11.75000000 Y1.62500000 I-0.12500000 J0.00000000
F30.00000000
G1 X11.62500000 Y1.62500000
F10.00000000
G1 Z-0.25500000
F30.00000000
G1 X11.75000000 Y1.62500000
G3 X11.75000000 Y1.62500000 I-0.12500000 J0.00000000
F30.00000000
G1 X11.62500000 Y1.62500000
F10.00000000
G1 Z-0.35500000
F30.00000000
G1 X11.75000000 Y1.62500000
G3 X11.75000000 Y1.62500000 I-0.12500000 J0.00000000
F30.00000000
G1 X11.62500000 Y1.62500000
F10.00000000
G1 Z-0.45500000
F30.00000000
G1 X11.75000000 Y1.62500000
G3 X11.75000000 Y1.62500000 I-0.12500000 J0.00000000
F30.00000000
G1 X11.62500000 Y1.62500000
F10.00000000
G1 Z-0.55500000
F30.00000000
G1 X11.75000000 Y1.62500000
G3 X11.75000000 Y1.62500000 I-0.12500000 J0.00000000
F30.00000000
G1 X11.62500000 Y1.62500000
F10.00000000
G1 Z-0.65500000
F30.00000000
G1 X11.75000000 Y1.62500000
G3 X11.75000000 Y1.62500000 I-0.12500000 J0.00000000
F30.00000000
G1 X11.62500000 Y1.62500000
F10.00000000
G1 Z-0.75500000
F30.00000000
G1 X11.75000000 Y1.62500000
G3 X11.75000000 Y1.62500000 I-0.12500000 J0.00000000
G1 Z0.10000000
G0 Z1.00000000
(Mounting hole x 3)
G0 X13.62500000 Y1.62500000
G0 Z0.10000000
F30.00000000
G1 X13.62500000 Y1.62500000
F10.00000000
G1 Z-0.05500000
F30.00000000
G1 X13.75000000 Y1.62500000
G3 X13.75000000 Y1.62500000 I-0.12500000 J0.00000000
G1 X13.87500000 Y1.62500000
G3 X13.87500000 Y1.62500000 I-0.25000000 J0.00000000
G1 X14.00000000 Y1.62500000
G3 X14.00000000 Y1.62500000 I-0.37500000 J0.00000000
F30.00000000
G1 X13.62500000 Y1.62500000
F10.00000000
G1 Z-0.15500000
F30.00000000
G1 X13.75000000 Y1.62500000
G3 X13.75000000 Y1.62500000 I-0.12500000 J0.00000000
G1 X13.87500000 Y1.62500000
G3 X13.87500000 Y1.62500000 I-0.25000000 J0.00000000
G1 X14.00000000 Y1.62500000
G3 X14.00000000 Y1.62500000 I-0.37500000 J0.00000000
F30.00000000
G1 X13.62500000 Y1.62500000
F10.00000000
G1 Z-0.25500000
F30.00000000
G1 X13.75000000 Y1.62500000
G3 X13.75000000 Y1.62500000 I-0.12500000 J0.00000000
G1 X13.87500000 Y1.62500000
G3 X13.87500000 Y1.62500000 I-0.25000000 J0.00000000
G1 X14.00000000 Y1.62500000
G3 X14.00000000 Y1.62500000 I-0.37500000 J0.00000000
F30.00000000
G1 X13.62500000 Y1.62500000
F10.00000000
G1 Z-0.35500000
F30.00000000
G1 X13.75000000 Y1.62500000
G3 X13.75000000 Y1.62500000 I-0.12500000 J0.00000000
G1 X13.87500000 Y1.62500000
G3 X13.87500000 Y1.62500000 I-0.25000000 J0.00000000
G1 X14.00000000 Y1.62500000
G3 X14.00000000 Y1.62500000 I-0.37500000 J0.00000000
F30.00000000
G1 X13.62500000 Y1.62500000
F10.00000000
G1 Z-0.45500000
F30.00000000
G1 X13.75000000 Y1.62500000
G3 X13.75000000 Y1.62500000 I-0.12500000 J0.00000000
G1 X13.87500000 Y1.62500000
G3 X13.87500000 Y1.62500000 I-0.25000000 J0.00000000
G1 X14.00000000 Y1.62500000
G3 X14.00000000 Y1.62500000 I-0.37500000 J0.00000000
F30.00000000
G1 X13.62500000 Y1.62500000
F10.00000000
G1 Z-0.55500000
F30.00000000
G1 X13.75000000 Y1.62500000
G3 X13.75000000 Y1.62500000 I-0.12500000 J0.00000000
G1 X13.87500000 Y1.62500000
G3 X13.87500000 Y1.62500000 I-0.25000000 J0.00000000
G1 X14.00000000 Y1.62500000
G3 X14.00000000 Y1.62500000 I-0.37500000 J0.00000000
F30.00000000
G1 X13.62500000 Y1.62500000
F10.00000000
G1 Z-0.65500000
F30.00000000
G1 X13.75000000 Y1.62500000
G3 X13.75000000 Y1.62500000 I-0.12500000 J0.00000000
G1 X13.87500000 Y1.62500000
G3 X13.87500000 Y1.62500000 I-0.25000000 J0.00000000
G1 X14.00000000 Y1.62500000
G3 X14.00000000 Y1.62500000 I-0.37500000 J0.00000000
F30.00000000
G1 X13.62500000 Y1.62500000
F10.00000000
G1 Z-0.75500000
F30.00000000
G1 X13.75000000 Y1.62500000
G3 X13.75000000 Y1.62500000 I-0.12500000 J0.00000000
G1 X13.87500000 Y1.62500000
G3 X13.87500000 Y1.62500000 I-0.25000000 J0.00000000
G1 X14.00000000 Y1.62500000
G3 X14.00000000 Y1.62500000 I-0.37500000 J0.00000000
G1 Z0.10000000
G0 Z1.00000000
(Screw hole x 3)
G0 X15.62500000 Y1.62500000
G0 Z0.10000000
F30.00000000
G1 X15.62500000 Y1.62500000
F10.00000000
G1 Z-0.05500000
F30.00000000
G1 X15.75000000 Y1.62500000
G3 X15.75000000 Y1.62500000 I-0.12500000 J0.00000000
F30.00000000
G1 X15.62500000 Y1.62500000
F10.00000000
G1 Z-0.15500000
F30.00000000
G1 X15.75000000 Y1.62500000
G3 X15.75000000 Y1.62500000 I-0.12500000 J0.00000000
F30.00000000
G1 X15.62500000 Y1.62500000
F10.00000000
G1 Z-0.25500000
F30.00000000
G1 X15.75000000 Y1.62500000
G3 X15.75000000 Y1.62500000 I-0.12500000 J0.00000000
F30.00000000
G1 X15.62500000 Y1.62500000
F10.00000000
G1 Z-0.35500000
F30.00000000
G1 X15.75000000 Y1.62500000
G3 X15.75000000 Y1.62500000 I-0.12500000 J0.00000000
F30.00000000
G1 X15.62500000 Y1.62500000
F10.00000000
G1 Z-0.45500000
F30.00000000
G1 X15.75000000 Y1.62500000
G3 X15.75000000 Y1.62500000 I-0.12500000 J0.00000000
F30.00000000
G1 X15.62500000 Y1.62500000
F10.00000000
G1 Z-0.55500000
F30.00000000
G1 X15.75000000 Y1.62500000
G3 X15.75000000 Y1.62500000 I-0.12500000 J0.00000000
F30.00000000
G1 X15.62500000 Y1.62500000
F10.00000000
G1 Z-0.65500000
F30.00000000
G1 X15.75000000 Y1.62500000
G3 X15.75000000 Y1.62500000 I-0.12500000 J0.00000000
F30.00000000
G1 X15.62500000 Y1.62500000
F10.00000000
G1 Z-0.75500000
F30.00000000
G1 X15.75000000 Y1.62500000
G3 X15.75000000 Y1.62500000 I-0.12500000 J0.00000000
G1 Z0.10000000
G0 Z1.00000000
(Mounting hole x 4)
G0 X17.62500000 Y1.62500000
G0 Z0.10000000
F30.00000000
G1 X17.62500000 Y1.62500000
F10.00000000
G1 Z-0.05500000
F30.00000000
G1 X17.75000000 Y1.62500000
G3 X17.75000000 Y1.62500000 I-0.12500000 J0.00000000
G1 X17.87500000 Y1.62500000
G3 X17.87500000 Y1.62500000 I-0.25000000 J0.00000000
G1 X18.00000000 Y1.62500000
G3 X18.00000000 Y1.62500000 I-0.37500000 J0.00000000
F30.00000000
G1 X17.62500000 Y1.62500000
F10.00000000
G1 Z-0.15500000
F30.00000000
G1 X17.75000000 Y1.62500000
G3 X17.75000000 Y1.62500000 I-0.12500000 J0.00000000
G1 X17.87500000 Y1.62500000
G3 X17.87500000 Y1.62500000 I-0.25000000 J0.00000000
G1 X18.00000000 Y1.62500000
G3 X18.00000000 Y1.62500000 I-0.37500000 J0.00000000
F30.00000000
G1 X17.62500000 Y1.62500000
F10.00000000
G1 Z-0.25500000
F30.00000000
G1 X17.75000000 Y1.62500000
G3 X17.75000000 Y1.62500000 I-0.12500000 J0.00000000
G1 X17.87500000 Y1.62500000
G3 X17.87500000 Y1.62500000 I-0.25000000 J0.00000000
G1 X18.00000000 Y1.62500000
G3 X18.00000000 Y1.62500000 I-0.37500000 J0.00000000
F30.00000000
G1 X17.62500000 Y1.62500000
F10.00000000
G1 Z-0.35500000
F30.00000000
G1 X17.75000000 Y1.62500000
G3 X17.75000000 Y1.62500000 I-0.12500000 J0.00000000
G1 X17.87500000 Y1.62500000
G3 X17.87500000 Y1.62500000 I-0.25000000 J0.00000000
G1 X18.00000000 Y1.62500000
G3 X18.00000000 Y1.62500000 I-0.37500000 J0.00000000
F30.00000000
G1 X17.62500000 Y1.62500000
F10.00000000
G1 Z-0.45500000
F30.00000000
G1 X17.75000000 Y1.62500000
G3 X17.75000000 Y1.62500000 I-0.12500000 J0.00000000
G1 X17.87500000 Y1.62500000
G3 X17.87500000 Y1.62500000 I-0.25000000 J0.00000000
G1 X18.00000000 Y1.62500000
G3 X18.00000000 Y1.62500000 I-0.37500000 J0.00000000
F30.00000000
G1 X17.62500000 Y1.62500000
F10.00000000
G1 Z-0.55500000
F30.00000000
G1 X17.75000000 Y1.62500000
G3 X17.75000000 Y1.62500000 I-0.12500000 J0.00000000
G1 X17.87500000 Y1.62500000
G3 X17.87500000 Y1.62500000 I-0.25000000 J0.00000000
G1 X18.00000000 Y1.62500000
G3 X18.00000000 Y1.62500000 I-0.37500000 J0.00000000
F30.00000000
G1 X17.62500000 Y1.62500000
F10.00000000
G1 Z-0.65500000
F30.00000000
G1 X17.75000000 Y1.62500000
G3 X17.75000000 Y1.62500000 I-0.12500000 J0.00000000
G1 X17.87500000 Y1.62500000
G3 X17.87500000 Y1.62500000 I-0.25000000 J0.00000000
G1 X18.00000000 Y1.62500000
G3 X18.00000000 Y1.62500000 I-0.37500000 J0.00000000
F30.00000000
G1 X17.62500000 Y1.62500000
F10.00000000
G1 Z-0.75500000
F30.00000000
G1 X17.75000000 Y1.62500000
G3 X17.75000000 Y1.62500000 I-0.12500000 J0.00000000
G1 X17.87500000 Y1.62500000
G3 X17.87500000 Y1.62500000 I-0.25000000 J0.00000000
G1 X18.00000000 Y1.62500000
G3 X18.00000000 Y1.62500000 I-0.37500000 J0.00000000
G1 Z0.10000000
G0 Z1.00000000
(Mounting hole y 4)
G0 X1.62500000 Y17.62500000
G0 Z0.10000000
F30.00000000
G1 X1.62500000 Y17.62500000
F10.00000000
G1 Z-0.05500000
F30.00000000
G1 X1.75000000 Y17.62500000
G3 X1.75000000 Y17.62500000 I-0.12500000 J0.00000000
G1 X1.87500000 Y17.62500000
G3 X1.87500000 Y17.62500000 I-0.25000000 J0.00000000
G1 X2.00000000 Y17.62500000
G3 X2.00000000 Y17.62500000 I-0.37500000 J0.00000000
F30.00000000
G1 X1.62500000 Y17.62500000
F10.00000000
G1 Z-0.15500000
F30.00000000
G1 X1.75000000 Y17.62500000
G3 X1.75000000 Y17.62500000 I-0.12500000 J0.00000000
G1 X1.87500000 Y17.62500000
G3 X1.87500000 Y17.62500000 I-0.25000000 J0.00000000
G1 X2.00000000 Y17.62500000
G3 X2.00000000 Y17.62500000 I-0.37500000 J0.00000000
F30.00000000
G1 X1.62500000 Y17.62500000
F10.00000000
G1 Z-0.25500000
F30.00000000
G1 X1.75000000 Y17.62500000
G3 X1.75000000 Y17.62500000 I-0.12500000 J0.00000000
G1 X1.87500000 Y17.62500000
G3 X1.87500000 Y17.62500000 I-0.25000000 J0.00000000
G1 X2.00000000 Y17.62500000
G3 X2.00000000 Y17.62500000 I-0.37500000 J0.00000000
F30.00000000
G1 X1.62500000 Y17.62500000
F10.00000000
G1 Z-0.35500000
F30.00000000
G1 X1.75000000 Y17.62500000
G3 X1.75000000 Y17.62500000 I-0.12500000 J0.00000000
G1 X1.87500000 Y17.62500000
G3 X1.87500000 Y17.62500000 I-0.25000000 J0.00000000
G1 X2.00000000 Y17.62500000
G3 X2.00000000 Y17.62500000 I-0.37500000 J0.00000000
F30.00000000
G1 X1.62500000 Y17.62500000
F10.00000000
G1 Z-0.45500000
F30.00000000
G1 X1.75000000 Y17.62500000
G3 X1.75000000 Y17.62500000 I-0.12500000 J0.00000000
G1 X1.87500000 Y17.62500000
G3 X1.87500000 Y17.62500000 I-0.25000000 J0.00000000
G1 X2.00000000 Y17.62500000
G3 X2.00000000 Y17.62500000 I-0.37500000 J0.00000000
F30.00000000
G1 X1.62500000 Y17.62500000
F10.00000000
G1 Z-0.55500000
F30.00000000
G1 X1.75000000 Y17.62500000
G3 X1.75000000 Y17.62500000 I-0.12500000 J0.00000000
G1 X1.87500000 Y17.62500000
G3 X1.87500000 Y17.62500000 I-0.25000000 J0.00000000
G1 X2.00000000 Y17.62500000
G3 X2.00000000 Y17.62500000 I-0.37500000 J0.00000000
F30.00000000
G1 X1.62500000 Y17.62500000
F10.00000000
G1 Z-0.65500000
F30.00000000
G1 X1.75000000 Y17.62500000
G3 X1.75000000 Y17.62500000 I-0.12500000 J0.00000000
G1 X1.87500000 Y17.62500000
G3 X1.87500000 Y17.62500000 I-0.25000000 J0.00000000
G1 X2.00000000 Y17.62500000
G3 X2.00000000 Y17.62500000 I-0.37500000 J0.00000000
F30.00000000
G1 X1.62500000 Y17.62500000
F10.00000000
G1 Z-0.75500000
F30.00000000
G1 X1.75000000 Y17.62500000
G3 X1.75000000 Y17.62500000 I-0.12500000 J0.00000000
G1 X1.87500000 Y17.62500000
G3 X1.87500000 Y17.62500000 I-0.25000000 J0.00000000
G1 X2.00000000 Y17.62500000
G3 X2.00000000 Y17.62500000 I-0.37500000 J0.00000000
G1 Z0.10000000
G0 Z1.00000000
(Screw hole y 4)
G0 X1.62500000 Y15.62500000
G0 Z0.10000000
F30.00000000
G1 X1.62500000 Y15.62500000
F10.00000000
G1 Z-0.05500000
F30.00000000
G1 X1.75000000 Y15.62500000
G3 X1.75000000 Y15.62500000 I-0.12500000 J0.00000000
F30.00000000
G1 X1.62500000 Y15.62500000
F10.00000000
G1 Z-0.15500000
F30.00000000
G1 X1.75000000 Y15.62500000
G3 X1.75000000 Y15.62500000 I-0.12500000 J0.00000000
F30.00000000
G1 X1.62500000 Y15.62500000
F10.00000000
G1 Z-0.25500000
F30.00000000
G1 X1.75000000 Y15.62500000
G3 X1.75000000 Y15.62500000 I-0.12500000 J0.00000000
F30.00000000
G1 X1.62500000 Y15.62500000
F10.00000000
G1 Z-0.35500000
F30.00000000
G1 X1.75000000 Y15.62500000
G3 X1.75000000 Y15.62500000 I-0.12500000 J0.00000000
F30.00000000
G1 X1.62500000 Y15.62500000
F10.00000000
G1 Z-0.45500000
F30.00000000
G1 X1.75000000 Y15.62500000
G3 X1.75000000 Y15.62500000 I-0.12500000 J0.00000000
F30.00000000
G1 X1.62500000 Y15.62500000
F10.00000000
G1 Z-0.55500000
F30.00000000
G1 X1.75000000 Y15.62500000
G3 X1.75000000 Y15.62500000 I-0.12500000 J0.00000000
F30.00000000
G1 X1.62500000 Y15.62500000
F10.00000000
G1 Z-0.65500000
F30.00000000
G1 X1.75000000 Y15.62500000
G3 X1.75000000 Y15.62500000 I-0.12500000 J0.00000000
F30.00000000
G1 X1.62500000 Y15.62500000
F10.00000000
G1 Z-0.75500000
F30.00000000
G1 X1.75000000 Y15.62500000
G3 X1.75000000 Y15.62500000 I-0.12500000 J0.00000000
G1 Z0.10000000
G0 Z1.00000000
(Mounting hole y 3)
G0 X1.62500000 Y13.62500000
G0 Z0.10000000
F30.00000000
G1 X1.62500000 Y13.62500000
F10.00000000
G1 Z-0.05500000
F30.00000000
G1 X1.75000000 Y13.62500000
G3 X1.75000000 Y13.62500000 I-0.12500000 J0.00000000
G1 X1.87500000 Y13.62500000
G3 X1.87500000 Y13.62500000 I-0.25000000 J0.00000000
G1 X2.00000000 Y13.62500000
G3 X2.00000000 Y13.62500000 I-0.37500000 J0.00000000
F30.00000000
G1 X1.62500000 Y13.62500000
F10.00000000
G1 Z-0.15500000
F30.00000000
G1 X1.75000000 Y13.62500000
G3 X1.75000000 Y13.62500000 I-0.12500000 J0.00000000
G1 X1.87500000 Y13.62500000
G3 X1.87500000 Y13.62500000 I-0.25000000 J0.00000000
G1 X2.00000000 Y13.62500000
G3 X2.00000000 Y13.62500000 I-0.37500000 J0.00000000
F30.00000000
G1 X1.62500000 Y13.62500000
F10.00000000
G1 Z-0.25500000
F30.00000000
G1 X1.75000000 Y13.62500000
G3 X1.75000000 Y13.62500000 I-0.12500000 J0.00000000
G1 X1.87500000 Y13.62500000
G3 X1.87500000 Y13.62500000 I-0.25000000 J0.00000000
G1 X2.00000000 Y13.62500000
G3 X2.00000000 Y13.62500000 I-0.37500000 J0.00000000
F30.00000000
G1 X1.62500000 Y13.62500000
F10.00000000
G1 Z-0.35500000
F30.00000000
G1 X1.75000000 Y13.62500000
G3 X1.75000000 Y13.62500000 I-0.12500000 J0.00000000
G1 X1.87500000 Y13.62500000
G3 X1.87500000 Y13.62500000 I-0.25000000 J0.00000000
G1 X2.00000000 Y13.62500000
G3 X2.00000000 Y13.62500000 I-0.37500000 J0.00000000
F30.00000000
G1 X1.62500000 Y13.62500000
F10.00000000
G1 Z-0.45500000
F30.00000000
G1 X1.75000000 Y13.62500000
G3 X1.75000000 Y13.62500000 I-0.12500000 J0.00000000
G1 X1.87500000 Y13.62500000
G3 X1.87500000 Y13.62500000 I-0.25000000 J0.00000000
G1 X2.00000000 Y13.62500000
G3 X2.00000000 Y13.62500000 I-0.37500000 J0.00000000
F30.00000000
G1 X1.62500000 Y13.62500000
F10.00000000
G1 Z-0.55500000
F30.00000000
G1 X1.75000000 Y13.62500000
G3 X1.75000000 Y13.62500000 I-0.12500000 J0.00000000
G1 X1.87500000 Y13.62500000
G3 X1.87500000 Y13.62500000 I-0.25000000 J0.00000000
G1 X2.00000000 Y13.62500000
G3 X2.00000000 Y13.62500000 I-0.37500000 J0.00000000
F30.00000000
G1 X1.62500000 Y13.62500000
F10.00000000
G1 Z-0.65500000
F30.00000000
G1 X1.75000000 Y13.62500000
G3 X1.75000000 Y13.62500000 I-0.12500000 J0.00000000
G1 X1.87500000 Y13.62500000
G3 X1.87500000 Y13.62500000 I-0.25000000 J0.00000000
G1 X2.00000000 Y13.62500000
G3 X2.00000000 Y13.62500000 I-0.37500000 J0.00000000
F30.00000000
G1 X1.62500000 Y13.62500000
F10.00000000
G1 Z-0.75500000
F30.00000000
G1 X1.75000000 Y13.62500000
G3 X1.75000000 Y13.62500000 I-0.12500000 J0.00000000
G1 X1.87500000 Y13.62500000
G3 X1.87500000 Y13.62500000 I-0.25000000 J0.00000000
G1 X2.00000000 Y13.62500000
G3 X2.00000000 Y13.62500000 I-0.37500000 J0.00000000
G1 Z0.10000000
G0 Z1.00000000
(Screw hole y 3)
G0 X1.62500000 Y11.62500000
G0 Z0.10000000
F30.00000000
G1 X1.62500000 Y11.62500000
F10.00000000
G1 Z-0.05500000
F30.00000000
G1 X1.75000000 Y11.62500000
G3 X1.75000000 Y11.62500000 I-0.12500000 J0.00000000
F30.00000000
G1 X1.62500000 Y11.62500000
F10.00000000
G1 Z-0.15500000
F30.00000000
G1 X1.75000000 Y11.62500000
G3 X1.75000000 Y11.62500000 I-0.12500000 J0.00000000
F30.00000000
G1 X1.62500000 Y11.62500000
F10.00000000
G1 Z-0.25500000
F30.00000000
G1 X1.75000000 Y11.62500000
G3 X1.75000000 Y11.62500000 I-0.12500000 J0.00000000
F30.00000000
G1 X1.62500000 Y11.62500000
F10.00000000
G1 Z-0.35500000
F30.00000000
G1 X1.75000000 Y11.62500000
G3 X1.75000000 Y11.62500000 I-0.12500000 J0.00000000
F30.00000000
G1 X1.62500000 Y11.62500000
F10.00000000
G1 Z-0.45500000
F30.00000000
G1 X1.75000000 Y11.62500000
G3 X1.75000000 Y11.62500000 I-0.12500000 J0.00000000
F30.00000000
G1 X1.62500000 Y11.62500000
F10.00000000
G1 Z-0.55500000
F30.00000000
G1 X1.75000000 Y11.62500000
G3 X1.75000000 Y11.62500000 I-0.12500000 J0.00000000
F30.00000000
G1 X1.62500000 Y11.62500000
F10.00000000
G1 Z-0.65500000
F30.00000000
G1 X1.75000000 Y11.62500000
G3 X1.75000000 Y11.62500000 I-0.12500000 J0.00000000
F30.00000000
G1 X1.62500000 Y11.62500000
F10.00000000
G1 Z-0.75500000
F30.00000000
G1 X1.75000000 Y11.62500000
G3 X1.75000000 Y11.62500000 I-0.12500000 J0.00000000
G1 Z0.10000000
G0 Z1.00000000
(Mounting hole y 2)
G0 X1.62500000 Y9.62500000
G0 Z0.10000000
F30.00000000
G1 X1.62500000 Y9.62500000
F10.00000000
G1 Z-0.05500000
F30.00000000
G1 X1.75000000 Y9.62500000
G3 X1.75000000 Y9.62500000 I-0.12500000 J0.00000000
G1 X1.87500000 Y9.62500000
G3 X1.87500000 Y9.62500000 I-0.25000000 J0.00000000
G1 X2.00000000 Y9.62500000
G3 X2.00000000 Y9.62500000 I-0.37500000 J0.00000000
F30.00000000
G1 X1.62500000 Y9.62500000
F10.00000000
G1 Z-0.15500000
F30.00000000
G1 X1.75000000 Y9.62500000
G3 X1.75000000 Y9.62500000 I-0.12500000 J0.00000000
G1 X1.87500000 Y9.62500000
G3 X1.87500000 Y9.62500000 I-0.25000000 J0.00000000
G1 X2.00000000 Y9.62500000
G3 X2.00000000 Y9.62500000 I-0.37500000 J0.00000000
F30.00000000
G1 X1.62500000 Y9.62500000
F10.00000000
G1 Z-0.25500000
F30.00000000
G1 X1.75000000 Y9.62500000
G3 X1.75000000 Y9.62500000 I-0.12500000 J0.00000000
G1 X1.87500000 Y9.62500000
G3 X1.87500000 Y9.62500000 I-0.25000000 J0.00000000
G1 X2.00000000 Y9.62500000
G3 X2.00000000 Y9.62500000 I-0.37500000 J0.00000000
F30.00000000
G1 X1.62500000 Y9.62500000
F10.00000000
G1 Z-0.35500000
F30.00000000
G1 X1.75000000 Y9.62500000
G3 X1.75000000 Y9.62500000 I-0.12500000 J0.00000000
G1 X1.87500000 Y9.62500000
G3 X1.87500000 Y9.62500000 I-0.25000000 J0.00000000
G1 X2.00000000 Y9.62500000
G3 X2.00000000 Y9.62500000 I-0.37500000 J0.00000000
F30.00000000
G1 X1.62500000 Y9.62500000
F10.00000000
G1 Z-0.45500000
F30.00000000
G1 X1.75000000 Y9.62500000
G3 X1.75000000 Y9.62500000 I-0.12500000 J0.00000000
G1 X1.87500000 Y9.62500000
G3 X1.87500000 Y9.62500000 I-0.25000000 J0.00000000
G1 X2.00000000 Y9.62500000
G3 X2.00000000 Y9.62500000 I-0.37500000 J0.00000000
F30.00000000
G1 X1.62500000 Y9.62500000
F10.00000000
G1 Z-0.55500000
F30.00000000
G1 X1.75000000 Y9.62500000
G3 X1.75000000 Y9.62500000 I-0.12500000 J0.00000000
G1 X1.87500000 Y9.62500000
G3 X1.87500000 Y9.62500000 I-0.25000000 J0.00000000
G1 X2.00000000 Y9.62500000
G3 X2.00000000 Y9.62500000 I-0.37500000 J0.00000000
F30.00000000
G1 X1.62500000 Y9.62500000
F10.00000000
G1 Z-0.65500000
F30.00000000
G1 X1.75000000 Y9.62500000
G3 X1.75000000 Y9.62500000 I-0.12500000 J0.00000000
G1 X1.87500000 Y9.62500000
G3 X1.87500000 Y9.62500000 I-0.25000000 J0.00000000
G1 X2.00000000 Y9.62500000
G3 X2.00000000 Y9.62500000 I-0.37500000 J0.00000000
F30.00000000
G1 X1.62500000 Y9.62500000
F10.00000000
G1 Z-0.75500000
F30.00000000
G1 X1.75000000 Y9.62500000
G3 X1.75000000 Y9.62500000 I-0.12500000 J0.00000000
G1 X1.87500000 Y9.62500000
G3 X1.87500000 Y9.62500000 I-0.25000000 J0.00000000
G1 X2.00000000 Y9.62500000
G3 X2.00000000 Y9.62500000 I-0.37500000 J0.00000000
G1 Z0.10000000
G0 Z1.00000000
(Screw hole y 2)
G0 X1.62500000 Y7.62500000
G0 Z0.10000000
F30.00000000
G1 X1.62500000 Y7.62500000
F10.00000000
G1 Z-0.05500000
F30.00000000
G1 X1.75000000 Y7.62500000
G3 X1.75000000 Y7.62500000 I-0.12500000 J0.00000000
F30.00000000
G1 X1.62500000 Y7.62500000
F10.00000000
G1 Z-0.15500000
F30.00000000
G1 X1.75000000 Y7.62500000
G3 X1.75000000 Y7.62500000 I-0.12500000 J0.00000000
F30.00000000
G1 X1.62500000 Y7.62500000
F10.00000000
G1 Z-0.25500000
F30.00000000
G1 X1.75000000 Y7.62500000
G3 X1.75000000 Y7.62500000 I-0.12500000 J0.00000000
F30.00000000
G1 X1.62500000 Y7.62500000
F10.00000000
G1 Z-0.35500000
F30.00000000
G1 X1.75000000 Y7.62500000
G3 X1.75000000 Y7.62500000 I-0.12500000 J0.00000000
F30.00000000
G1 X1.62500000 Y7.62500000
F10.00000000
G1 Z-0.45500000
F30.00000000
G1 X1.75000000 Y7.62500000
G3 X1.75000000 Y7.62500000 I-0.12500000 J0.00000000
F30.00000000
G1 X1.62500000 Y7.62500000
F10.00000000
G1 Z-0.55500000
F30.00000000
G1 X1.75000000 Y7.62500000
G3 X1.75000000 Y7.62500000 I-0.12500000 J0.00000000
F30.00000000
G1 X1.62500000 Y7.62500000
F10.00000000
G1 Z-0.65500000
F30.00000000
G1 X1.75000000 Y7.62500000
G3 X1.75000000 Y7.62500000 I-0.12500000 J0.00000000
F30.00000000
G1 X1.62500000 Y7.62500000
F10.00000000
G1 Z-0.75500000
F30.00000000
G1 X1.75000000 Y7.62500000
G3 X1.75000000 Y7.62500000 I-0.12500000 J0.00000000
G1 Z0.10000000
G0 Z1.00000000
(Mounting hole y 1)
G0 X1.62500000 Y5.62500000
G0 Z0.10000000
F30.00000000
G1 X1.62500000 Y5.62500000
F10.00000000
G1 Z-0.05500000
F30.00000000
G1 X1.75000000 Y5.62500000
G3 X1.75000000 Y5.62500000 I-0.12500000 J0.00000000
G1 X1.87500000 Y5.62500000
G3 X1.87500000 Y5.62500000 I-0.25000000 J0.00000000
G1 X2.00000000 Y5.62500000
G3 X2.00000000 Y5.62500000 I-0.37500000 J0.00000000
F30.00000000
G1 X1.62500000 Y5.62500000
F10.00000000
G1 Z-0.15500000
F30.00000000
G1 X1.75000000 Y5.62500000
G3 X1.75000000 Y5.62500000 I-0.12500000 J0.00000000
G1 X1.87500000 Y5.62500000
G3 X1.87500000 Y5.62500000 I-0.25000000 J0.00000000
G1 X2.00000000 Y5.62500000
G3 X2.00000000 Y5.62500000 I-0.37500000 J0.00000000
F30.00000000
G1 X1.62500000 Y5.62500000
F10.00000000
G1 Z-0.25500000
F30.00000000
G1 X1.75000000 Y5.62500000
G3 X1.75000000 Y5.62500000 I-0.12500000 J0.00000000
G1 X1.87500000 Y5.62500000
G3 X1.87500000 Y5.62500000 I-0.25000000 J0.00000000
G1 X2.00000000 Y5.62500000
G3 X2.00000000 Y5.62500000 I-0.37500000 J0.00000000
F30.00000000
G1 X1.62500000 Y5.62500000
F10.00000000
G1 Z-0.35500000
F30.00000000
G1 X1.75000000 Y5.62500000
G3 X1.75000000 Y5.62500000 I-0.12500000 J0.00000000
G1 X1.87500000 Y5.62500000
G3 X1.87500000 Y5.62500000 I-0.25000000 J0.00000000
G1 X2.00000000 Y5.62500000
G3 X2.00000000 Y5.62500000 I-0.37500000 J0.00000000
F30.00000000
G1 X1.62500000 Y5.62500000
F10.00000000
G1 Z-0.45500000
F30.00000000
G1 X1.75000000 Y5.62500000
G3 X1.75000000 Y5.62500000 I-0.12500000 J0.00000000
G1 X1.87500000 Y5.62500000
G3 X1.87500000 Y5.62500000 I-0.25000000 J0.00000000
G1 X2.00000000 Y5.62500000
G3 X2.00000000 Y5.62500000 I-0.37500000 J0.00000000
F30.00000000
G1 X1.62500000 Y5.62500000
F10.00000000
G1 Z-0.55500000
F30.00000000
G1 X1.75000000 Y5.62500000
G3 X1.75000000 Y5.62500000 I-0.12500000 J0.00000000
G1 X1.87500000 Y5.62500000
G3 X1.87500000 Y5.62500000 I-0.25000000 J0.00000000
G1 X2.00000000 Y5.62500000
G3 X2.00000000 Y5.62500000 I-0.37500000 J0.00000000
F30.00000000
G1 X1.62500000 Y5.62500000
F10.00000000
G1 Z-0.65500000
F30.00000000
G1 X1.75000000 Y5.62500000
G3 X1.75000000 Y5.62500000 I-0.12500000 J0.00000000
G1 X1.87500000 Y5.62500000
G3 X1.87500000 Y5.62500000 I-0.25000000 J0.00000000
G1 X2.00000000 Y5.62500000
G3 X2.00000000 Y5.62500000 I-0.37500000 J0.00000000
F30.00000000
G1 X1.62500000 Y5.62500000
F10.00000000
G1 Z-0.75500000
F30.00000000
G1 X1.75000000 Y5.62500000
G3 X1.75000000 Y5.62500000 I-0.12500000 J0.00000000
G1 X1.87500000 Y5.62500000
G3 X1.87500000 Y5.62500000 I-0.25000000 J0.00000000
G1 X2.00000000 Y5.62500000
G3 X2.00000000 Y5.62500000 I-0.37500000 J0.00000000
G1 Z0.10000000
G0 Z1.00000000
(Screw hole y 1)
G0 X1.62500000 Y3.62500000
G0 Z0.10000000
F30.00000000
G1 X1.62500000 Y3.62500000
F10.00000000
G1 Z-0.05500000
F30.00000000
G1 X1.75000000 Y3.62500000
G3 X1.75000000 Y3.62500000 I-0.12500000 J0.00000000
F30.00000000
G1 X1.62500000 Y3.62500000
F10.00000000
G1 Z-0.15500000
F30.00000000
G1 X1.75000000 Y3.62500000
G3 X1.75000000 Y3.62500000 I-0.12500000 J0.00000000
F30.00000000
G1 X1.62500000 Y3.62500000
F10.00000000
G1 Z-0.25500000
F30.00000000
G1 X1.75000000 Y3.62500000
G3 X1.75000000 Y3.62500000 I-0.12500000 J0.00000000
F30.00000000
G1 X1.62500000 Y3.62500000
F10.00000000
G1 Z-0.35500000
F30.00000000
G1 X1.75000000 Y3.62500000
G3 X1.75000000 Y3.62500000 I-0.12500000 J0.00000000
F30.00000000
G1 X1.62500000 Y3.62500000
F10.00000000
G1 Z-0.45500000
F30.00000000
G1 X1.75000000 Y3.62500000
G3 X1.75000000 Y3.62500000 I-0.12500000 J0.00000000
F30.00000000
G1 X1.62500000 Y3.62500000
F10.00000000
G1 Z-0.55500000
F30.00000000
G1 X1.75000000 Y3.62500000
G3 X1.75000000 Y3.62500000 I-0.12500000 J0.00000000
F30.00000000
G1 X1.62500000 Y3.62500000
F10.00000000
G1 Z-0.65500000
F30.00000000
G1 X1.75000000 Y3.62500000
G3 X1.75000000 Y3.62500000 I-0.12500000 J0.00000000
F30.00000000
G1 X1.62500000 Y3.62500000
F10.00000000
G1 Z-0.75500000
F30.00000000
G1 X1.75000000 Y3.62500000
G3 X1.75000000 Y3.62500000 I-0.12500000 J0.00000000
G1 Z0.10000000
G0 Z1.00000000
(Corner hole top)
G0 X2.62500000 Y2.62500000
G0 Z0.10000000
F30.00000000
G1 X2.62500000 Y2.62500000
F10.00000000
G1 Z-0.01600000
F30.00000000
G1 X2.75000000 Y2.62500000
G3 X2.75000000 Y2.62500000 I-0.12500000 J0.00000000
F30.00000000
G1 X2.62500000 Y2.62500000
F10.00000000
G1 Z-0.11600000
F30.00000000
G1 X2.75000000 Y2.62500000
G3 X2.75000000 Y2.62500000 I-0.12500000 J0.00000000
F30.00000000
G1 X2.62500000 Y2.62500000
F10.00000000
G1 Z-0.21600000
F30.00000000
G1 X2.75000000 Y2.62500000
G3 X2.75000000 Y2.62500000 I-0.12500000 J0.00000000
F30.00000000
G1 X2.62500000 Y2.62500000
F10.00000000
G1 Z-0.31600000
F30.00000000
G1 X2.75000000 Y2.62500000
G3 X2.75000000 Y2.62500000 I-0.12500000 J0.00000000
F30.00000000
G1 X2.62500000 Y2.62500000
F10.00000000
G1 Z-0.41600000
F30.00000000
G1 X2.75000000 Y2.62500000
G3 X2.75000000 Y2.62500000 I-0.12500000 J0.00000000
F30.00000000
G1 X2.62500000 Y2.62500000
F10.00000000
G1 Z-0.51600000
F30.00000000
G1 X2.75000000 Y2.62500000
G3 X2.75000000 Y2.62500000 I-0.12500000 J0.00000000
G1 Z0.10000000
G0 Z1.00000000
(Corner hole bottom)
G0 X3.12500000 Y3.12500000
G0 Z0.10000000
F30.00000000
G1 X3.12500000 Y3.12500000
F10.00000000
G1 Z-0.05500000
F30.00000000
G1 X3.25000000 Y3.12500000
G3 X3.25000000 Y3.12500000 I-0.12500000 J0.00000000
F30.00000000
G1 X3.12500000 Y3.12500000
F10.00000000
G1 Z-0.15500000
F30.00000000
G1 X3.25000000 Y3.12500000
G3 X3.25000000 Y3.12500000 I-0.12500000 J0.00000000
F30.00000000
G1 X3.12500000 Y3.12500000
F10.00000000
G1 Z-0.25500000
F30.00000000
G1 X3.25000000 Y3.12500000
G3 X3.25000000 Y3.12500000 I-0.12500000 J0.00000000
F30.00000000
G1 X3.12500000 Y3.12500000
F10.00000000
G1 Z-0.35500000
F30.00000000
G1 X3.25000000 Y3.12500000
G3 X3.25000000 Y3.12500000 I-0.12500000 J0.00000000
F30.00000000
G1 X3.12500000 Y3.12500000
F10.00000000
G1 Z-0.45500000
F30.00000000
G1 X3.25000000 Y3.12500000
G3 X3.25000000 Y3.12500000 I-0.12500000 J0.00000000
F30.00000000
G1 X3.12500000 Y3.12500000
F10.00000000
G1 Z-0.55500000
F30.00000000
G1 X3.25000000 Y3.12500000
G3 X3.25000000 Y3.12500000 I-0.12500000 J0.00000000
F30.00000000
G1 X3.12500000 Y3.12500000
F10.00000000
G1 Z-0.65500000
F30.00000000
G1 X3.25000000 Y3.12500000
G3 X3.25000000 Y3.12500000 I-0.12500000 J0.00000000
F30.00000000
G1 X3.12500000 Y3.12500000
F10.00000000
G1 Z-0.75500000
F30.00000000
G1 X3.25000000 Y3.12500000
G3 X3.25000000 Y3.12500000 I-0.12500000 J0.00000000
G1 Z0.10000000
G0 Z1.00000000
(Lip pocket x)
G0 X2.75000000 Y2.75000000
G0 Z0.10000000
G0 X2.75000000 Y2.75000000
F10.00000000
G1 Z-0.01600000
F30.00000000
G1 X19.12500000
G1 Y2.87500000
G1 X2.75000000
G1 Y3.00000000
G1 X19.12500000
G1 Y3.12500000
G1 X2.75000000
G0 X2.75000000 Y2.75000000
F10.00000000
G1 Z-0.11600000
F30.00000000
G1 X19.12500000
G1 Y2.87500000
G1 X2.75000000
G1 Y3.00000000
G1 X19.12500000
G1 Y3.12500000
G1 X2.75000000
G0 X2.75000000 Y2.75000000
F10.00000000
G1 Z-0.21600000
F30.00000000
G1 X19.12500000
G1 Y2.87500000
G1 X2.75000000
G1 Y3.00000000
G1 X19.12500000
G1 Y3.12500000
G1 X2.75000000
G0 X2.75000000 Y2.75000000
F10.00000000
G1 Z-0.31600000
F30.00000000
G1 X19.12500000
G1 Y2.87500000
G1 X2.75000000
G1 Y3.00000000
G1 X19.12500000
G1 Y3.12500000
G1 X2.75000000
G0 X2.75000000 Y2.75000000
F10.00000000
G1 Z-0.41600000
F30.00000000
G1 X19.12500000
G1 Y2.87500000
G1 X2.75000000
G1 Y3.00000000
G1 X19.12500000
G1 Y3.12500000
G1 X2.75000000
G0 X2.75000000 Y2.75000000
F10.00000000
G1 Z-0.51600000
F30.00000000
G1 X19.12500000
G1 Y2.87500000
G1 X2.75000000
G1 Y3.00000000
G1 X19.12500000
G1 Y3.12500000
G1 X2.75000000
G1 Z0.10000000
G0 Z1.00000000
(Lip pocket y)
G0 X2.75000000 Y2.75000000
G0 Z0.10000000
G0 X2.75000000 Y2.75000000
F10.00000000
G1 Z-0.01600000
F30.00000000
G1 Y19.12500000
G1 X2.87500000
G1 Y2.75000000
G1 X3.00000000
G1 Y19.12500000
G1 X3.12500000
G1 Y2.75000000
G0 X2.75000000 Y2.75000000
F10.00000000
G1 Z-0.11600000
F30.00000000
G1 Y19.12500000
G1 X2.87500000
G1 Y2.75000000
G1 X3.00000000
G1 Y19.12500000
G1 X3.12500000
G1 Y2.75000000
G0 X2.75000000 Y2.75000000
F10.00000000
G1 Z-0.21600000
F30.00000000
G1 Y19.12500000
G1 X2.87500000
G1 Y2.75000000
G1 X3.00000000
G1 Y19.12500000
G1 X3.12500000
G1 Y2.75000000
G0 X2.75000000 Y2.75000000
F10.00000000
G1 Z-0.31600000
F30.00000000
G1 Y19.12500000
G1 X2.87500000
G1 Y2.75000000
G1 X3.00000000
G1 Y19.12500000
G1 X3.12500000
G1 Y2.75000000
G0 X2.75000000 Y2.75000000
F10.00000000
G1 Z-0.41600000
F30.00000000
G1 Y19.12500000
G1 X2.87500000
G1 Y2.75000000
G1 X3.00000000
G1 Y19.12500000
G1 X3.12500000
G1 Y2.75000000
G0 X2.75000000 Y2.75000000
F10.00000000
G1 Z-0.51600000
F30.00000000
G1 Y19.12500000
G1 X2.87500000
G1 Y2.75000000
G1 X3.00000000
G1 Y19.12500000
G1 X3.12500000
G1 Y2.75000000
G1 Z0.10000000
G0 Z1.00000000
(Profile)
G0 X0.00000000 Y0.00000000
G0 Z0.10000000
F10.00000000
G1 Z-0.05500000
F30.00000000
G1 X0.00000000 Y0.00000000
G1 X19.25000000 Y0.00000000
G1 X19.25000000 Y3.25000000
G1 X3.25000000 Y3.25000000
G1 X3.25000000 Y19.25000000
G1 X0.00000000 Y19.25000000
G1 X0.00000000 Y0.00000000
G1 X0.00000000 Y0.00000000
F10.00000000
G1 Z-0.15500000
F30.00000000
G1 X0.00000000 Y0.00000000
G1 X19.25000000 Y0.00000000
G1 X19.25000000 Y3.25000000
G1 X3.25000000 Y3.25000000
G1 X3.25000000 Y19.25000000
G1 X0.00000000 Y19.25000000
G1 X0.00000000 Y0.00000000
G1 X0.00000000 Y0.00000000
F10.00000000
G1 Z-0.25500000
F30.00000000
G1 X0.00000000 Y0.00000000
G1 X19.25000000 Y0.00000000
G1 X19.25000000 Y3.25000000
G1 X3.25000000 Y3.25000000
G1 X3.25000000 Y19.25000000
G1 X0.00000000 Y19.25000000
G1 X0.00000000 Y0.00000000
G1 X0.00000000 Y0.00000000
F10.00000000
G1 Z-0.35500000
F30.00000000
G1 X0.00000000 Y0.00000000
G1 X19.25000000 Y0.00000000
G1 X19.25000000 Y3.25000000
G1 X3.25000000 Y3.25000000
G1 X3.25000000 Y19.25000000
G1 X0.00000000 Y19.25000000
G1 X0.00000000 Y0.00000000
G1 X0.00000000 Y0.00000000
F10.00000000
G1 Z-0.45500000
F30.00000000
G1 X0.00000000 Y0.00000000
G1 X19.25000000 Y0.00000000
G1 X19.25000000 Y3.25000000
G1 X3.25000000 Y3.25000000
G1 X3.25000000 Y19.25000000
G1 X0.00000000 Y19.25000000
G1 X0.00000000 Y0.00000000
G1 X0.00000000 Y0.00000000
F10.00000000
G1 Z-0.55500000
F30.00000000
G1 X0.00000000 Y0.00000000
G1 X19.25000000 Y0.00000000
G1 X19.25000000 Y3.25000000
G1 X3.25000000 Y3.25000000
G1 X3.25000000 Y19.25000000
G1 X0.00000000 Y19.25000000
G1 X0.00000000 Y0.00000000
G1 X0.00000000 Y0.00000000
F10.00000000
G1 Z-0.65500000
F30.00000000
G1 X0.00000000 Y0.00000000
G1 X19.25000000 Y0.00000000
G1 X19.25000000 Y3.25000000
G1 X3.25000000 Y3.25000000
G1 X3.25000000 Y19.25000000
G1 X0.00000000 Y19.25000000
G1 X0.00000000 Y0.00000000
G1 X0.00000000 Y0.00000000
F10.00000000
G1 Z-0.75500000
F30.00000000
G1 X9.45000000 Y0.00000000
F10.00000000
G1 Z-0.65500000
F30.00000000
G1 X9.80000000 Y0.00000000
F10.00000000
G1 Z-0.75500000
F30.00000000
G1 X19.25000000 Y0.00000000
G1 X19.25000000 Y1.45000000
F10.00000000
G1 Z-0.65500000
F30.00000000
G1 X19.25000000 Y1.80000000
F10.00000000
G1 Z-0.75500000
F30.00000000
G1 X19.25000000 Y3.25000000
G1 X3.25000000 Y3.25000000
G1 X3.25000000 Y19.25000000
G1 X1.80000000 Y19.25000000
F10.00000000
G1 Z-0.65500000
F30.00000000
G1 X1.45000000 Y19.25000000
F10.00000000
G1 Z-0.75500000
F30.00000000
G1 X0.00000000 Y19.25000000
G1 X0.00000000 Y9.80000000
F10.00000000
G1 Z-0.65500000
F30.00000000
G1 X0.00000000 Y9.45000000
F10.00000000
G1 Z-0.75500000
F30.00000000
G1 X0.00000000 Y0.00000000
G1 X0.00000000 Y0.00000000
G1 Z0.10000000
G0 Z1.00000000
(Safe)
G0 Z1.00000000
(-- epilogue begin --)
M5 (Spindle off)
M2 (End program)
(-- epilogue end --)
