(generated via gcode.py; do not edit)
(2023-05-15 21:50:35)
(-- prologue begin --)
G17 (Use XY plane)
G20 (Use inch)
G40 (Cancel cutter radius compensation)
G49 (Cancel tool length compensation)
G54 (Default coordinate system)
G80 (Cancel canned cycle)
G90 (Use absolute distance mode)
G94 (Units Per Minute feed rate mode)
G64 P0.001 (Enable path blending for best speed, with accuracy)
M3 (Spindle on clockwise)
(-- prologue end --)
G0 Z1.00000000
(Mounting hole x 0)
G0 X1.61000000 Y1.61000000
G0 Z0.10000000
F30.00000000
G1 X1.61000000 Y1.61000000
F10.00000000
G1 Z-0.05500000
F30.00000000
G1 X1.72000000 Y1.61000000
G3 X1.72000000 Y1.61000000 I-0.11000000 J0.00000000
G1 X1.84500000 Y1.61000000
G3 X1.84500000 Y1.61000000 I-0.23500000 J0.00000000
G1 X1.97000000 Y1.61000000
G3 X1.97000000 Y1.61000000 I-0.36000000 J0.00000000
F30.00000000
G1 X1.61000000 Y1.61000000
F10.00000000
G1 Z-0.15500000
F30.00000000
G1 X1.72000000 Y1.61000000
G3 X1.72000000 Y1.61000000 I-0.11000000 J0.00000000
G1 X1.84500000 Y1.61000000
G3 X1.84500000 Y1.61000000 I-0.23500000 J0.00000000
G1 X1.97000000 Y1.61000000
G3 X1.97000000 Y1.61000000 I-0.36000000 J0.00000000
F30.00000000
G1 X1.61000000 Y1.61000000
F10.00000000
G1 Z-0.25500000
F30.00000000
G1 X1.72000000 Y1.61000000
G3 X1.72000000 Y1.61000000 I-0.11000000 J0.00000000
G1 X1.84500000 Y1.61000000
G3 X1.84500000 Y1.61000000 I-0.23500000 J0.00000000
G1 X1.97000000 Y1.61000000
G3 X1.97000000 Y1.61000000 I-0.36000000 J0.00000000
F30.00000000
G1 X1.61000000 Y1.61000000
F10.00000000
G1 Z-0.35500000
F30.00000000
G1 X1.72000000 Y1.61000000
G3 X1.72000000 Y1.61000000 I-0.11000000 J0.00000000
G1 X1.84500000 Y1.61000000
G3 X1.84500000 Y1.61000000 I-0.23500000 J0.00000000
G1 X1.97000000 Y1.61000000
G3 X1.97000000 Y1.61000000 I-0.36000000 J0.00000000
F30.00000000
G1 X1.61000000 Y1.61000000
F10.00000000
G1 Z-0.45500000
F30.00000000
G1 X1.72000000 Y1.61000000
G3 X1.72000000 Y1.61000000 I-0.11000000 J0.00000000
G1 X1.84500000 Y1.61000000
G3 X1.84500000 Y1.61000000 I-0.23500000 J0.00000000
G1 X1.97000000 Y1.61000000
G3 X1.97000000 Y1.61000000 I-0.36000000 J0.00000000
F30.00000000
G1 X1.61000000 Y1.61000000
F10.00000000
G1 Z-0.55500000
F30.00000000
G1 X1.72000000 Y1.61000000
G3 X1.72000000 Y1.61000000 I-0.11000000 J0.00000000
G1 X1.84500000 Y1.61000000
G3 X1.84500000 Y1.61000000 I-0.23500000 J0.00000000
G1 X1.97000000 Y1.61000000
G3 X1.97000000 Y1.61000000 I-0.36000000 J0.00000000
F30.00000000
G1 X1.61000000 Y1.61000000
F10.00000000
G1 Z-0.65500000
F30.00000000
G1 X1.72000000 Y1.61000000
G3 X1.72000000 Y1.61000000 I-0.11000000 J0.00000000
G1 X1.84500000 Y1.61000000
G3 X1.84500000 Y1.61000000 I-0.23500000 J0.00000000
G1 X1.97000000 Y1.61000000
G3 X1.97000000 Y1.61000000 I-0.36000000 J0.00000000
F30.00000000
G1 X1.61000000 Y1.61000000
F10.00000000
G1 Z-0.75500000
F30.00000000
G1 X1.72000000 Y1.61000000
G3 X1.72000000 Y1.61000000 I-0.11000000 J0.00000000
G1 X1.84500000 Y1.61000000
G3 X1.84500000 Y1.61000000 I-0.23500000 J0.00000000
G1 X1.97000000 Y1.61000000
G3 X1.97000000 Y1.61000000 I-0.36000000 J0.00000000
G1 Z0.10000000
G0 Z1.00000000
(Screw hole x 0)
G0 X3.61000000 Y1.61000000
G0 Z0.10000000
F30.00000000
G1 X3.61000000 Y1.61000000
F10.00000000
G1 Z-0.05500000
F30.00000000
G1 X3.73500000 Y1.61000000
G3 X3.73500000 Y1.61000000 I-0.12500000 J0.00000000
F30.00000000
G1 X3.61000000 Y1.61000000
F10.00000000
G1 Z-0.15500000
F30.00000000
G1 X3.73500000 Y1.61000000
G3 X3.73500000 Y1.61000000 I-0.12500000 J0.00000000
F30.00000000
G1 X3.61000000 Y1.61000000
F10.00000000
G1 Z-0.25500000
F30.00000000
G1 X3.73500000 Y1.61000000
G3 X3.73500000 Y1.61000000 I-0.12500000 J0.00000000
F30.00000000
G1 X3.61000000 Y1.61000000
F10.00000000
G1 Z-0.35500000
F30.00000000
G1 X3.73500000 Y1.61000000
G3 X3.73500000 Y1.61000000 I-0.12500000 J0.00000000
F30.00000000
G1 X3.61000000 Y1.61000000
F10.00000000
G1 Z-0.45500000
F30.00000000
G1 X3.73500000 Y1.61000000
G3 X3.73500000 Y1.61000000 I-0.12500000 J0.00000000
F30.00000000
G1 X3.61000000 Y1.61000000
F10.00000000
G1 Z-0.55500000
F30.00000000
G1 X3.73500000 Y1.61000000
G3 X3.73500000 Y1.61000000 I-0.12500000 J0.00000000
F30.00000000
G1 X3.61000000 Y1.61000000
F10.00000000
G1 Z-0.65500000
F30.00000000
G1 X3.73500000 Y1.61000000
G3 X3.73500000 Y1.61000000 I-0.12500000 J0.00000000
F30.00000000
G1 X3.61000000 Y1.61000000
F10.00000000
G1 Z-0.75500000
F30.00000000
G1 X3.73500000 Y1.61000000
G3 X3.73500000 Y1.61000000 I-0.12500000 J0.00000000
G1 Z0.10000000
G0 Z1.00000000
(Mounting hole x 1)
G0 X5.61000000 Y1.61000000
G0 Z0.10000000
F30.00000000
G1 X5.61000000 Y1.61000000
F10.00000000
G1 Z-0.05500000
F30.00000000
G1 X5.72000000 Y1.61000000
G3 X5.72000000 Y1.61000000 I-0.11000000 J0.00000000
G1 X5.84500000 Y1.61000000
G3 X5.84500000 Y1.61000000 I-0.23500000 J0.00000000
G1 X5.97000000 Y1.61000000
G3 X5.97000000 Y1.61000000 I-0.36000000 J0.00000000
F30.00000000
G1 X5.61000000 Y1.61000000
F10.00000000
G1 Z-0.15500000
F30.00000000
G1 X5.72000000 Y1.61000000
G3 X5.72000000 Y1.61000000 I-0.11000000 J0.00000000
G1 X5.84500000 Y1.61000000
G3 X5.84500000 Y1.61000000 I-0.23500000 J0.00000000
G1 X5.97000000 Y1.61000000
G3 X5.97000000 Y1.61000000 I-0.36000000 J0.00000000
F30.00000000
G1 X5.61000000 Y1.61000000
F10.00000000
G1 Z-0.25500000
F30.00000000
G1 X5.72000000 Y1.61000000
G3 X5.72000000 Y1.61000000 I-0.11000000 J0.00000000
G1 X5.84500000 Y1.61000000
G3 X5.84500000 Y1.61000000 I-0.23500000 J0.00000000
G1 X5.97000000 Y1.61000000
G3 X5.97000000 Y1.61000000 I-0.36000000 J0.00000000
F30.00000000
G1 X5.61000000 Y1.61000000
F10.00000000
G1 Z-0.35500000
F30.00000000
G1 X5.72000000 Y1.61000000
G3 X5.72000000 Y1.61000000 I-0.11000000 J0.00000000
G1 X5.84500000 Y1.61000000
G3 X5.84500000 Y1.61000000 I-0.23500000 J0.00000000
G1 X5.97000000 Y1.61000000
G3 X5.97000000 Y1.61000000 I-0.36000000 J0.00000000
F30.00000000
G1 X5.61000000 Y1.61000000
F10.00000000
G1 Z-0.45500000
F30.00000000
G1 X5.72000000 Y1.61000000
G3 X5.72000000 Y1.61000000 I-0.11000000 J0.00000000
G1 X5.84500000 Y1.61000000
G3 X5.84500000 Y1.61000000 I-0.23500000 J0.00000000
G1 X5.97000000 Y1.61000000
G3 X5.97000000 Y1.61000000 I-0.36000000 J0.00000000
F30.00000000
G1 X5.61000000 Y1.61000000
F10.00000000
G1 Z-0.55500000
F30.00000000
G1 X5.72000000 Y1.61000000
G3 X5.72000000 Y1.61000000 I-0.11000000 J0.00000000
G1 X5.84500000 Y1.61000000
G3 X5.84500000 Y1.61000000 I-0.23500000 J0.00000000
G1 X5.97000000 Y1.61000000
G3 X5.97000000 Y1.61000000 I-0.36000000 J0.00000000
F30.00000000
G1 X5.61000000 Y1.61000000
F10.00000000
G1 Z-0.65500000
F30.00000000
G1 X5.72000000 Y1.61000000
G3 X5.72000000 Y1.61000000 I-0.11000000 J0.00000000
G1 X5.84500000 Y1.61000000
G3 X5.84500000 Y1.61000000 I-0.23500000 J0.00000000
G1 X5.97000000 Y1.61000000
G3 X5.97000000 Y1.61000000 I-0.36000000 J0.00000000
F30.00000000
G1 X5.61000000 Y1.61000000
F10.00000000
G1 Z-0.75500000
F30.00000000
G1 X5.72000000 Y1.61000000
G3 X5.72000000 Y1.61000000 I-0.11000000 J0.00000000
G1 X5.84500000 Y1.61000000
G3 X5.84500000 Y1.61000000 I-0.23500000 J0.00000000
G1 X5.97000000 Y1.61000000
G3 X5.97000000 Y1.61000000 I-0.36000000 J0.00000000
G1 Z0.10000000
G0 Z1.00000000
(Screw hole x 1)
G0 X7.61000000 Y1.61000000
G0 Z0.10000000
F30.00000000
G1 X7.61000000 Y1.61000000
F10.00000000
G1 Z-0.05500000
F30.00000000
G1 X7.73500000 Y1.61000000
G3 X7.73500000 Y1.61000000 I-0.12500000 J0.00000000
F30.00000000
G1 X7.61000000 Y1.61000000
F10.00000000
G1 Z-0.15500000
F30.00000000
G1 X7.73500000 Y1.61000000
G3 X7.73500000 Y1.61000000 I-0.12500000 J0.00000000
F30.00000000
G1 X7.61000000 Y1.61000000
F10.00000000
G1 Z-0.25500000
F30.00000000
G1 X7.73500000 Y1.61000000
G3 X7.73500000 Y1.61000000 I-0.12500000 J0.00000000
F30.00000000
G1 X7.61000000 Y1.61000000
F10.00000000
G1 Z-0.35500000
F30.00000000
G1 X7.73500000 Y1.61000000
G3 X7.73500000 Y1.61000000 I-0.12500000 J0.00000000
F30.00000000
G1 X7.61000000 Y1.61000000
F10.00000000
G1 Z-0.45500000
F30.00000000
G1 X7.73500000 Y1.61000000
G3 X7.73500000 Y1.61000000 I-0.12500000 J0.00000000
F30.00000000
G1 X7.61000000 Y1.61000000
F10.00000000
G1 Z-0.55500000
F30.00000000
G1 X7.73500000 Y1.61000000
G3 X7.73500000 Y1.61000000 I-0.12500000 J0.00000000
F30.00000000
G1 X7.61000000 Y1.61000000
F10.00000000
G1 Z-0.65500000
F30.00000000
G1 X7.73500000 Y1.61000000
G3 X7.73500000 Y1.61000000 I-0.12500000 J0.00000000
F30.00000000
G1 X7.61000000 Y1.61000000
F10.00000000
G1 Z-0.75500000
F30.00000000
G1 X7.73500000 Y1.61000000
G3 X7.73500000 Y1.61000000 I-0.12500000 J0.00000000
G1 Z0.10000000
G0 Z1.00000000
(Mounting hole x 2)
G0 X9.61000000 Y1.61000000
G0 Z0.10000000
F30.00000000
G1 X9.61000000 Y1.61000000
F10.00000000
G1 Z-0.05500000
F30.00000000
G1 X9.72000000 Y1.61000000
G3 X9.72000000 Y1.61000000 I-0.11000000 J0.00000000
G1 X9.84500000 Y1.61000000
G3 X9.84500000 Y1.61000000 I-0.23500000 J0.00000000
G1 X9.97000000 Y1.61000000
G3 X9.97000000 Y1.61000000 I-0.36000000 J0.00000000
F30.00000000
G1 X9.61000000 Y1.61000000
F10.00000000
G1 Z-0.15500000
F30.00000000
G1 X9.72000000 Y1.61000000
G3 X9.72000000 Y1.61000000 I-0.11000000 J0.00000000
G1 X9.84500000 Y1.61000000
G3 X9.84500000 Y1.61000000 I-0.23500000 J0.00000000
G1 X9.97000000 Y1.61000000
G3 X9.97000000 Y1.61000000 I-0.36000000 J0.00000000
F30.00000000
G1 X9.61000000 Y1.61000000
F10.00000000
G1 Z-0.25500000
F30.00000000
G1 X9.72000000 Y1.61000000
G3 X9.72000000 Y1.61000000 I-0.11000000 J0.00000000
G1 X9.84500000 Y1.61000000
G3 X9.84500000 Y1.61000000 I-0.23500000 J0.00000000
G1 X9.97000000 Y1.61000000
G3 X9.97000000 Y1.61000000 I-0.36000000 J0.00000000
F30.00000000
G1 X9.61000000 Y1.61000000
F10.00000000
G1 Z-0.35500000
F30.00000000
G1 X9.72000000 Y1.61000000
G3 X9.72000000 Y1.61000000 I-0.11000000 J0.00000000
G1 X9.84500000 Y1.61000000
G3 X9.84500000 Y1.61000000 I-0.23500000 J0.00000000
G1 X9.97000000 Y1.61000000
G3 X9.97000000 Y1.61000000 I-0.36000000 J0.00000000
F30.00000000
G1 X9.61000000 Y1.61000000
F10.00000000
G1 Z-0.45500000
F30.00000000
G1 X9.72000000 Y1.61000000
G3 X9.72000000 Y1.61000000 I-0.11000000 J0.00000000
G1 X9.84500000 Y1.61000000
G3 X9.84500000 Y1.61000000 I-0.23500000 J0.00000000
G1 X9.97000000 Y1.61000000
G3 X9.97000000 Y1.61000000 I-0.36000000 J0.00000000
F30.00000000
G1 X9.61000000 Y1.61000000
F10.00000000
G1 Z-0.55500000
F30.00000000
G1 X9.72000000 Y1.61000000
G3 X9.72000000 Y1.61000000 I-0.11000000 J0.00000000
G1 X9.84500000 Y1.61000000
G3 X9.84500000 Y1.61000000 I-0.23500000 J0.00000000
G1 X9.97000000 Y1.61000000
G3 X9.97000000 Y1.61000000 I-0.36000000 J0.00000000
F30.00000000
G1 X9.61000000 Y1.61000000
F10.00000000
G1 Z-0.65500000
F30.00000000
G1 X9.72000000 Y1.61000000
G3 X9.72000000 Y1.61000000 I-0.11000000 J0.00000000
G1 X9.84500000 Y1.61000000
G3 X9.84500000 Y1.61000000 I-0.23500000 J0.00000000
G1 X9.97000000 Y1.61000000
G3 X9.97000000 Y1.61000000 I-0.36000000 J0.00000000
F30.00000000
G1 X9.61000000 Y1.61000000
F10.00000000
G1 Z-0.75500000
F30.00000000
G1 X9.72000000 Y1.61000000
G3 X9.72000000 Y1.61000000 I-0.11000000 J0.00000000
G1 X9.84500000 Y1.61000000
G3 X9.84500000 Y1.61000000 I-0.23500000 J0.00000000
G1 X9.97000000 Y1.61000000
G3 X9.97000000 Y1.61000000 I-0.36000000 J0.00000000
G1 Z0.10000000
G0 Z1.00000000
(Screw hole x 2)
G0 X11.61000000 Y1.61000000
G0 Z0.10000000
F30.00000000
G1 X11.61000000 Y1.61000000
F10.00000000
G1 Z-0.05500000
F30.00000000
G1 X11.73500000 Y1.61000000
G3 X11.73500000 Y1.61000000 I-0.12500000 J0.00000000
F30.00000000
G1 X11.61000000 Y1.61000000
F10.00000000
G1 Z-0.15500000
F30.00000000
G1 X11.73500000 Y1.61000000
G3 X11.73500000 Y1.61000000 I-0.12500000 J0.00000000
F30.00000000
G1 X11.61000000 Y1.61000000
F10.00000000
G1 Z-0.25500000
F30.00000000
G1 X11.73500000 Y1.61000000
G3 X11.73500000 Y1.61000000 I-0.12500000 J0.00000000
F30.00000000
G1 X11.61000000 Y1.61000000
F10.00000000
G1 Z-0.35500000
F30.00000000
G1 X11.73500000 Y1.61000000
G3 X11.73500000 Y1.61000000 I-0.12500000 J0.00000000
F30.00000000
G1 X11.61000000 Y1.61000000
F10.00000000
G1 Z-0.45500000
F30.00000000
G1 X11.73500000 Y1.61000000
G3 X11.73500000 Y1.61000000 I-0.12500000 J0.00000000
F30.00000000
G1 X11.61000000 Y1.61000000
F10.00000000
G1 Z-0.55500000
F30.00000000
G1 X11.73500000 Y1.61000000
G3 X11.73500000 Y1.61000000 I-0.12500000 J0.00000000
F30.00000000
G1 X11.61000000 Y1.61000000
F10.00000000
G1 Z-0.65500000
F30.00000000
G1 X11.73500000 Y1.61000000
G3 X11.73500000 Y1.61000000 I-0.12500000 J0.00000000
F30.00000000
G1 X11.61000000 Y1.61000000
F10.00000000
G1 Z-0.75500000
F30.00000000
G1 X11.73500000 Y1.61000000
G3 X11.73500000 Y1.61000000 I-0.12500000 J0.00000000
G1 Z0.10000000
G0 Z1.00000000
(Mounting hole x 3)
G0 X13.61000000 Y1.61000000
G0 Z0.10000000
F30.00000000
G1 X13.61000000 Y1.61000000
F10.00000000
G1 Z-0.05500000
F30.00000000
G1 X13.72000000 Y1.61000000
G3 X13.72000000 Y1.61000000 I-0.11000000 J0.00000000
G1 X13.84500000 Y1.61000000
G3 X13.84500000 Y1.61000000 I-0.23500000 J0.00000000
G1 X13.97000000 Y1.61000000
G3 X13.97000000 Y1.61000000 I-0.36000000 J0.00000000
F30.00000000
G1 X13.61000000 Y1.61000000
F10.00000000
G1 Z-0.15500000
F30.00000000
G1 X13.72000000 Y1.61000000
G3 X13.72000000 Y1.61000000 I-0.11000000 J0.00000000
G1 X13.84500000 Y1.61000000
G3 X13.84500000 Y1.61000000 I-0.23500000 J0.00000000
G1 X13.97000000 Y1.61000000
G3 X13.97000000 Y1.61000000 I-0.36000000 J0.00000000
F30.00000000
G1 X13.61000000 Y1.61000000
F10.00000000
G1 Z-0.25500000
F30.00000000
G1 X13.72000000 Y1.61000000
G3 X13.72000000 Y1.61000000 I-0.11000000 J0.00000000
G1 X13.84500000 Y1.61000000
G3 X13.84500000 Y1.61000000 I-0.23500000 J0.00000000
G1 X13.97000000 Y1.61000000
G3 X13.97000000 Y1.61000000 I-0.36000000 J0.00000000
F30.00000000
G1 X13.61000000 Y1.61000000
F10.00000000
G1 Z-0.35500000
F30.00000000
G1 X13.72000000 Y1.61000000
G3 X13.72000000 Y1.61000000 I-0.11000000 J0.00000000
G1 X13.84500000 Y1.61000000
G3 X13.84500000 Y1.61000000 I-0.23500000 J0.00000000
G1 X13.97000000 Y1.61000000
G3 X13.97000000 Y1.61000000 I-0.36000000 J0.00000000
F30.00000000
G1 X13.61000000 Y1.61000000
F10.00000000
G1 Z-0.45500000
F30.00000000
G1 X13.72000000 Y1.61000000
G3 X13.72000000 Y1.61000000 I-0.11000000 J0.00000000
G1 X13.84500000 Y1.61000000
G3 X13.84500000 Y1.61000000 I-0.23500000 J0.00000000
G1 X13.97000000 Y1.61000000
G3 X13.97000000 Y1.61000000 I-0.36000000 J0.00000000
F30.00000000
G1 X13.61000000 Y1.61000000
F10.00000000
G1 Z-0.55500000
F30.00000000
G1 X13.72000000 Y1.61000000
G3 X13.72000000 Y1.61000000 I-0.11000000 J0.00000000
G1 X13.84500000 Y1.61000000
G3 X13.84500000 Y1.61000000 I-0.23500000 J0.00000000
G1 X13.97000000 Y1.61000000
G3 X13.97000000 Y1.61000000 I-0.36000000 J0.00000000
F30.00000000
G1 X13.61000000 Y1.61000000
F10.00000000
G1 Z-0.65500000
F30.00000000
G1 X13.72000000 Y1.61000000
G3 X13.72000000 Y1.61000000 I-0.11000000 J0.00000000
G1 X13.84500000 Y1.61000000
G3 X13.84500000 Y1.61000000 I-0.23500000 J0.00000000
G1 X13.97000000 Y1.61000000
G3 X13.97000000 Y1.61000000 I-0.36000000 J0.00000000
F30.00000000
G1 X13.61000000 Y1.61000000
F10.00000000
G1 Z-0.75500000
F30.00000000
G1 X13.72000000 Y1.61000000
G3 X13.72000000 Y1.61000000 I-0.11000000 J0.00000000
G1 X13.84500000 Y1.61000000
G3 X13.84500000 Y1.61000000 I-0.23500000 J0.00000000
G1 X13.97000000 Y1.61000000
G3 X13.97000000 Y1.61000000 I-0.36000000 J0.00000000
G1 Z0.10000000
G0 Z1.00000000
(Mounting hole y 3)
G0 X1.61000000 Y13.61000000
G0 Z0.10000000
F30.00000000
G1 X1.61000000 Y13.61000000
F10.00000000
G1 Z-0.05500000
F30.00000000
G1 X1.72000000 Y13.61000000
G3 X1.72000000 Y13.61000000 I-0.11000000 J0.00000000
G1 X1.84500000 Y13.61000000
G3 X1.84500000 Y13.61000000 I-0.23500000 J0.00000000
G1 X1.97000000 Y13.61000000
G3 X1.97000000 Y13.61000000 I-0.36000000 J0.00000000
F30.00000000
G1 X1.61000000 Y13.61000000
F10.00000000
G1 Z-0.15500000
F30.00000000
G1 X1.72000000 Y13.61000000
G3 X1.72000000 Y13.61000000 I-0.11000000 J0.00000000
G1 X1.84500000 Y13.61000000
G3 X1.84500000 Y13.61000000 I-0.23500000 J0.00000000
G1 X1.97000000 Y13.61000000
G3 X1.97000000 Y13.61000000 I-0.36000000 J0.00000000
F30.00000000
G1 X1.61000000 Y13.61000000
F10.00000000
G1 Z-0.25500000
F30.00000000
G1 X1.72000000 Y13.61000000
G3 X1.72000000 Y13.61000000 I-0.11000000 J0.00000000
G1 X1.84500000 Y13.61000000
G3 X1.84500000 Y13.61000000 I-0.23500000 J0.00000000
G1 X1.97000000 Y13.61000000
G3 X1.97000000 Y13.61000000 I-0.36000000 J0.00000000
F30.00000000
G1 X1.61000000 Y13.61000000
F10.00000000
G1 Z-0.35500000
F30.00000000
G1 X1.72000000 Y13.61000000
G3 X1.72000000 Y13.61000000 I-0.11000000 J0.00000000
G1 X1.84500000 Y13.61000000
G3 X1.84500000 Y13.61000000 I-0.23500000 J0.00000000
G1 X1.97000000 Y13.61000000
G3 X1.97000000 Y13.61000000 I-0.36000000 J0.00000000
F30.00000000
G1 X1.61000000 Y13.61000000
F10.00000000
G1 Z-0.45500000
F30.00000000
G1 X1.72000000 Y13.61000000
G3 X1.72000000 Y13.61000000 I-0.11000000 J0.00000000
G1 X1.84500000 Y13.61000000
G3 X1.84500000 Y13.61000000 I-0.23500000 J0.00000000
G1 X1.97000000 Y13.61000000
G3 X1.97000000 Y13.61000000 I-0.36000000 J0.00000000
F30.00000000
G1 X1.61000000 Y13.61000000
F10.00000000
G1 Z-0.55500000
F30.00000000
G1 X1.72000000 Y13.61000000
G3 X1.72000000 Y13.61000000 I-0.11000000 J0.00000000
G1 X1.84500000 Y13.61000000
G3 X1.84500000 Y13.61000000 I-0.23500000 J0.00000000
G1 X1.97000000 Y13.61000000
G3 X1.97000000 Y13.61000000 I-0.36000000 J0.00000000
F30.00000000
G1 X1.61000000 Y13.61000000
F10.00000000
G1 Z-0.65500000
F30.00000000
G1 X1.72000000 Y13.61000000
G3 X1.72000000 Y13.61000000 I-0.11000000 J0.00000000
G1 X1.84500000 Y13.61000000
G3 X1.84500000 Y13.61000000 I-0.23500000 J0.00000000
G1 X1.97000000 Y13.61000000
G3 X1.97000000 Y13.61000000 I-0.36000000 J0.00000000
F30.00000000
G1 X1.61000000 Y13.61000000
F10.00000000
G1 Z-0.75500000
F30.00000000
G1 X1.72000000 Y13.61000000
G3 X1.72000000 Y13.61000000 I-0.11000000 J0.00000000
G1 X1.84500000 Y13.61000000
G3 X1.84500000 Y13.61000000 I-0.23500000 J0.00000000
G1 X1.97000000 Y13.61000000
G3 X1.97000000 Y13.61000000 I-0.36000000 J0.00000000
G1 Z0.10000000
G0 Z1.00000000
(Screw hole y 3)
G0 X1.61000000 Y11.61000000
G0 Z0.10000000
F30.00000000
G1 X1.61000000 Y11.61000000
F10.00000000
G1 Z-0.05500000
F30.00000000
G1 X1.73500000 Y11.61000000
G3 X1.73500000 Y11.61000000 I-0.12500000 J0.00000000
F30.00000000
G1 X1.61000000 Y11.61000000
F10.00000000
G1 Z-0.15500000
F30.00000000
G1 X1.73500000 Y11.61000000
G3 X1.73500000 Y11.61000000 I-0.12500000 J0.00000000
F30.00000000
G1 X1.61000000 Y11.61000000
F10.00000000
G1 Z-0.25500000
F30.00000000
G1 X1.73500000 Y11.61000000
G3 X1.73500000 Y11.61000000 I-0.12500000 J0.00000000
F30.00000000
G1 X1.61000000 Y11.61000000
F10.00000000
G1 Z-0.35500000
F30.00000000
G1 X1.73500000 Y11.61000000
G3 X1.73500000 Y11.61000000 I-0.12500000 J0.00000000
F30.00000000
G1 X1.61000000 Y11.61000000
F10.00000000
G1 Z-0.45500000
F30.00000000
G1 X1.73500000 Y11.61000000
G3 X1.73500000 Y11.61000000 I-0.12500000 J0.00000000
F30.00000000
G1 X1.61000000 Y11.61000000
F10.00000000
G1 Z-0.55500000
F30.00000000
G1 X1.73500000 Y11.61000000
G3 X1.73500000 Y11.61000000 I-0.12500000 J0.00000000
F30.00000000
G1 X1.61000000 Y11.61000000
F10.00000000
G1 Z-0.65500000
F30.00000000
G1 X1.73500000 Y11.61000000
G3 X1.73500000 Y11.61000000 I-0.12500000 J0.00000000
F30.00000000
G1 X1.61000000 Y11.61000000
F10.00000000
G1 Z-0.75500000
F30.00000000
G1 X1.73500000 Y11.61000000
G3 X1.73500000 Y11.61000000 I-0.12500000 J0.00000000
G1 Z0.10000000
G0 Z1.00000000
(Mounting hole y 2)
G0 X1.61000000 Y9.61000000
G0 Z0.10000000
F30.00000000
G1 X1.61000000 Y9.61000000
F10.00000000
G1 Z-0.05500000
F30.00000000
G1 X1.72000000 Y9.61000000
G3 X1.72000000 Y9.61000000 I-0.11000000 J0.00000000
G1 X1.84500000 Y9.61000000
G3 X1.84500000 Y9.61000000 I-0.23500000 J0.00000000
G1 X1.97000000 Y9.61000000
G3 X1.97000000 Y9.61000000 I-0.36000000 J0.00000000
F30.00000000
G1 X1.61000000 Y9.61000000
F10.00000000
G1 Z-0.15500000
F30.00000000
G1 X1.72000000 Y9.61000000
G3 X1.72000000 Y9.61000000 I-0.11000000 J0.00000000
G1 X1.84500000 Y9.61000000
G3 X1.84500000 Y9.61000000 I-0.23500000 J0.00000000
G1 X1.97000000 Y9.61000000
G3 X1.97000000 Y9.61000000 I-0.36000000 J0.00000000
F30.00000000
G1 X1.61000000 Y9.61000000
F10.00000000
G1 Z-0.25500000
F30.00000000
G1 X1.72000000 Y9.61000000
G3 X1.72000000 Y9.61000000 I-0.11000000 J0.00000000
G1 X1.84500000 Y9.61000000
G3 X1.84500000 Y9.61000000 I-0.23500000 J0.00000000
G1 X1.97000000 Y9.61000000
G3 X1.97000000 Y9.61000000 I-0.36000000 J0.00000000
F30.00000000
G1 X1.61000000 Y9.61000000
F10.00000000
G1 Z-0.35500000
F30.00000000
G1 X1.72000000 Y9.61000000
G3 X1.72000000 Y9.61000000 I-0.11000000 J0.00000000
G1 X1.84500000 Y9.61000000
G3 X1.84500000 Y9.61000000 I-0.23500000 J0.00000000
G1 X1.97000000 Y9.61000000
G3 X1.97000000 Y9.61000000 I-0.36000000 J0.00000000
F30.00000000
G1 X1.61000000 Y9.61000000
F10.00000000
G1 Z-0.45500000
F30.00000000
G1 X1.72000000 Y9.61000000
G3 X1.72000000 Y9.61000000 I-0.11000000 J0.00000000
G1 X1.84500000 Y9.61000000
G3 X1.84500000 Y9.61000000 I-0.23500000 J0.00000000
G1 X1.97000000 Y9.61000000
G3 X1.97000000 Y9.61000000 I-0.36000000 J0.00000000
F30.00000000
G1 X1.61000000 Y9.61000000
F10.00000000
G1 Z-0.55500000
F30.00000000
G1 X1.72000000 Y9.61000000
G3 X1.72000000 Y9.61000000 I-0.11000000 J0.00000000
G1 X1.84500000 Y9.61000000
G3 X1.84500000 Y9.61000000 I-0.23500000 J0.00000000
G1 X1.97000000 Y9.61000000
G3 X1.97000000 Y9.61000000 I-0.36000000 J0.00000000
F30.00000000
G1 X1.61000000 Y9.61000000
F10.00000000
G1 Z-0.65500000
F30.00000000
G1 X1.72000000 Y9.61000000
G3 X1.72000000 Y9.61000000 I-0.11000000 J0.00000000
G1 X1.84500000 Y9.61000000
G3 X1.84500000 Y9.61000000 I-0.23500000 J0.00000000
G1 X1.97000000 Y9.61000000
G3 X1.97000000 Y9.61000000 I-0.36000000 J0.00000000
F30.00000000
G1 X1.61000000 Y9.61000000
F10.00000000
G1 Z-0.75500000
F30.00000000
G1 X1.72000000 Y9.61000000
G3 X1.72000000 Y9.61000000 I-0.11000000 J0.00000000
G1 X1.84500000 Y9.61000000
G3 X1.84500000 Y9.61000000 I-0.23500000 J0.00000000
G1 X1.97000000 Y9.61000000
G3 X1.97000000 Y9.61000000 I-0.36000000 J0.00000000
G1 Z0.10000000
G0 Z1.00000000
(Screw hole y 2)
G0 X1.61000000 Y7.61000000
G0 Z0.10000000
F30.00000000
G1 X1.61000000 Y7.61000000
F10.00000000
G1 Z-0.05500000
F30.00000000
G1 X1.73500000 Y7.61000000
G3 X1.73500000 Y7.61000000 I-0.12500000 J0.00000000
F30.00000000
G1 X1.61000000 Y7.61000000
F10.00000000
G1 Z-0.15500000
F30.00000000
G1 X1.73500000 Y7.61000000
G3 X1.73500000 Y7.61000000 I-0.12500000 J0.00000000
F30.00000000
G1 X1.61000000 Y7.61000000
F10.00000000
G1 Z-0.25500000
F30.00000000
G1 X1.73500000 Y7.61000000
G3 X1.73500000 Y7.61000000 I-0.12500000 J0.00000000
F30.00000000
G1 X1.61000000 Y7.61000000
F10.00000000
G1 Z-0.35500000
F30.00000000
G1 X1.73500000 Y7.61000000
G3 X1.73500000 Y7.61000000 I-0.12500000 J0.00000000
F30.00000000
G1 X1.61000000 Y7.61000000
F10.00000000
G1 Z-0.45500000
F30.00000000
G1 X1.73500000 Y7.61000000
G3 X1.73500000 Y7.61000000 I-0.12500000 J0.00000000
F30.00000000
G1 X1.61000000 Y7.61000000
F10.00000000
G1 Z-0.55500000
F30.00000000
G1 X1.73500000 Y7.61000000
G3 X1.73500000 Y7.61000000 I-0.12500000 J0.00000000
F30.00000000
G1 X1.61000000 Y7.61000000
F10.00000000
G1 Z-0.65500000
F30.00000000
G1 X1.73500000 Y7.61000000
G3 X1.73500000 Y7.61000000 I-0.12500000 J0.00000000
F30.00000000
G1 X1.61000000 Y7.61000000
F10.00000000
G1 Z-0.75500000
F30.00000000
G1 X1.73500000 Y7.61000000
G3 X1.73500000 Y7.61000000 I-0.12500000 J0.00000000
G1 Z0.10000000
G0 Z1.00000000
(Mounting hole y 1)
G0 X1.61000000 Y5.61000000
G0 Z0.10000000
F30.00000000
G1 X1.61000000 Y5.61000000
F10.00000000
G1 Z-0.05500000
F30.00000000
G1 X1.72000000 Y5.61000000
G3 X1.72000000 Y5.61000000 I-0.11000000 J0.00000000
G1 X1.84500000 Y5.61000000
G3 X1.84500000 Y5.61000000 I-0.23500000 J0.00000000
G1 X1.97000000 Y5.61000000
G3 X1.97000000 Y5.61000000 I-0.36000000 J0.00000000
F30.00000000
G1 X1.61000000 Y5.61000000
F10.00000000
G1 Z-0.15500000
F30.00000000
G1 X1.72000000 Y5.61000000
G3 X1.72000000 Y5.61000000 I-0.11000000 J0.00000000
G1 X1.84500000 Y5.61000000
G3 X1.84500000 Y5.61000000 I-0.23500000 J0.00000000
G1 X1.97000000 Y5.61000000
G3 X1.97000000 Y5.61000000 I-0.36000000 J0.00000000
F30.00000000
G1 X1.61000000 Y5.61000000
F10.00000000
G1 Z-0.25500000
F30.00000000
G1 X1.72000000 Y5.61000000
G3 X1.72000000 Y5.61000000 I-0.11000000 J0.00000000
G1 X1.84500000 Y5.61000000
G3 X1.84500000 Y5.61000000 I-0.23500000 J0.00000000
G1 X1.97000000 Y5.61000000
G3 X1.97000000 Y5.61000000 I-0.36000000 J0.00000000
F30.00000000
G1 X1.61000000 Y5.61000000
F10.00000000
G1 Z-0.35500000
F30.00000000
G1 X1.72000000 Y5.61000000
G3 X1.72000000 Y5.61000000 I-0.11000000 J0.00000000
G1 X1.84500000 Y5.61000000
G3 X1.84500000 Y5.61000000 I-0.23500000 J0.00000000
G1 X1.97000000 Y5.61000000
G3 X1.97000000 Y5.61000000 I-0.36000000 J0.00000000
F30.00000000
G1 X1.61000000 Y5.61000000
F10.00000000
G1 Z-0.45500000
F30.00000000
G1 X1.72000000 Y5.61000000
G3 X1.72000000 Y5.61000000 I-0.11000000 J0.00000000
G1 X1.84500000 Y5.61000000
G3 X1.84500000 Y5.61000000 I-0.23500000 J0.00000000
G1 X1.97000000 Y5.61000000
G3 X1.97000000 Y5.61000000 I-0.36000000 J0.00000000
F30.00000000
G1 X1.61000000 Y5.61000000
F10.00000000
G1 Z-0.55500000
F30.00000000
G1 X1.72000000 Y5.61000000
G3 X1.72000000 Y5.61000000 I-0.11000000 J0.00000000
G1 X1.84500000 Y5.61000000
G3 X1.84500000 Y5.61000000 I-0.23500000 J0.00000000
G1 X1.97000000 Y5.61000000
G3 X1.97000000 Y5.61000000 I-0.36000000 J0.00000000
F30.00000000
G1 X1.61000000 Y5.61000000
F10.00000000
G1 Z-0.65500000
F30.00000000
G1 X1.72000000 Y5.61000000
G3 X1.72000000 Y5.61000000 I-0.11000000 J0.00000000
G1 X1.84500000 Y5.61000000
G3 X1.84500000 Y5.61000000 I-0.23500000 J0.00000000
G1 X1.97000000 Y5.61000000
G3 X1.97000000 Y5.61000000 I-0.36000000 J0.00000000
F30.00000000
G1 X1.61000000 Y5.61000000
F10.00000000
G1 Z-0.75500000
F30.00000000
G1 X1.72000000 Y5.61000000
G3 X1.72000000 Y5.61000000 I-0.11000000 J0.00000000
G1 X1.84500000 Y5.61000000
G3 X1.84500000 Y5.61000000 I-0.23500000 J0.00000000
G1 X1.97000000 Y5.61000000
G3 X1.97000000 Y5.61000000 I-0.36000000 J0.00000000
G1 Z0.10000000
G0 Z1.00000000
(Screw hole y 1)
G0 X1.61000000 Y3.61000000
G0 Z0.10000000
F30.00000000
G1 X1.61000000 Y3.61000000
F10.00000000
G1 Z-0.05500000
F30.00000000
G1 X1.73500000 Y3.61000000
G3 X1.73500000 Y3.61000000 I-0.12500000 J0.00000000
F30.00000000
G1 X1.61000000 Y3.61000000
F10.00000000
G1 Z-0.15500000
F30.00000000
G1 X1.73500000 Y3.61000000
G3 X1.73500000 Y3.61000000 I-0.12500000 J0.00000000
F30.00000000
G1 X1.61000000 Y3.61000000
F10.00000000
G1 Z-0.25500000
F30.00000000
G1 X1.73500000 Y3.61000000
G3 X1.73500000 Y3.61000000 I-0.12500000 J0.00000000
F30.00000000
G1 X1.61000000 Y3.61000000
F10.00000000
G1 Z-0.35500000
F30.00000000
G1 X1.73500000 Y3.61000000
G3 X1.73500000 Y3.61000000 I-0.12500000 J0.00000000
F30.00000000
G1 X1.61000000 Y3.61000000
F10.00000000
G1 Z-0.45500000
F30.00000000
G1 X1.73500000 Y3.61000000
G3 X1.73500000 Y3.61000000 I-0.12500000 J0.00000000
F30.00000000
G1 X1.61000000 Y3.61000000
F10.00000000
G1 Z-0.55500000
F30.00000000
G1 X1.73500000 Y3.61000000
G3 X1.73500000 Y3.61000000 I-0.12500000 J0.00000000
F30.00000000
G1 X1.61000000 Y3.61000000
F10.00000000
G1 Z-0.65500000
F30.00000000
G1 X1.73500000 Y3.61000000
G3 X1.73500000 Y3.61000000 I-0.12500000 J0.00000000
F30.00000000
G1 X1.61000000 Y3.61000000
F10.00000000
G1 Z-0.75500000
F30.00000000
G1 X1.73500000 Y3.61000000
G3 X1.73500000 Y3.61000000 I-0.12500000 J0.00000000
G1 Z0.10000000
G0 Z1.00000000
(Corner hole top)
G0 X2.59500000 Y2.59500000
G0 Z0.10000000
F30.00000000
G1 X2.59500000 Y2.59500000
F10.00000000
G1 Z-0.01600000
F30.00000000
G1 X2.72000000 Y2.59500000
G3 X2.72000000 Y2.59500000 I-0.12500000 J0.00000000
F30.00000000
G1 X2.59500000 Y2.59500000
F10.00000000
G1 Z-0.11600000
F30.00000000
G1 X2.72000000 Y2.59500000
G3 X2.72000000 Y2.59500000 I-0.12500000 J0.00000000
F30.00000000
G1 X2.59500000 Y2.59500000
F10.00000000
G1 Z-0.21600000
F30.00000000
G1 X2.72000000 Y2.59500000
G3 X2.72000000 Y2.59500000 I-0.12500000 J0.00000000
F30.00000000
G1 X2.59500000 Y2.59500000
F10.00000000
G1 Z-0.31600000
F30.00000000
G1 X2.72000000 Y2.59500000
G3 X2.72000000 Y2.59500000 I-0.12500000 J0.00000000
F30.00000000
G1 X2.59500000 Y2.59500000
F10.00000000
G1 Z-0.41600000
F30.00000000
G1 X2.72000000 Y2.59500000
G3 X2.72000000 Y2.59500000 I-0.12500000 J0.00000000
F30.00000000
G1 X2.59500000 Y2.59500000
F10.00000000
G1 Z-0.51600000
F30.00000000
G1 X2.72000000 Y2.59500000
G3 X2.72000000 Y2.59500000 I-0.12500000 J0.00000000
G1 Z0.10000000
G0 Z1.00000000
(Corner hole bottom)
G0 X3.09500000 Y3.09500000
G0 Z0.10000000
F30.00000000
G1 X3.09500000 Y3.09500000
F10.00000000
G1 Z-0.05500000
F30.00000000
G1 X3.22000000 Y3.09500000
G3 X3.22000000 Y3.09500000 I-0.12500000 J0.00000000
F30.00000000
G1 X3.09500000 Y3.09500000
F10.00000000
G1 Z-0.15500000
F30.00000000
G1 X3.22000000 Y3.09500000
G3 X3.22000000 Y3.09500000 I-0.12500000 J0.00000000
F30.00000000
G1 X3.09500000 Y3.09500000
F10.00000000
G1 Z-0.25500000
F30.00000000
G1 X3.22000000 Y3.09500000
G3 X3.22000000 Y3.09500000 I-0.12500000 J0.00000000
F30.00000000
G1 X3.09500000 Y3.09500000
F10.00000000
G1 Z-0.35500000
F30.00000000
G1 X3.22000000 Y3.09500000
G3 X3.22000000 Y3.09500000 I-0.12500000 J0.00000000
F30.00000000
G1 X3.09500000 Y3.09500000
F10.00000000
G1 Z-0.45500000
F30.00000000
G1 X3.22000000 Y3.09500000
G3 X3.22000000 Y3.09500000 I-0.12500000 J0.00000000
F30.00000000
G1 X3.09500000 Y3.09500000
F10.00000000
G1 Z-0.55500000
F30.00000000
G1 X3.22000000 Y3.09500000
G3 X3.22000000 Y3.09500000 I-0.12500000 J0.00000000
F30.00000000
G1 X3.09500000 Y3.09500000
F10.00000000
G1 Z-0.65500000
F30.00000000
G1 X3.22000000 Y3.09500000
G3 X3.22000000 Y3.09500000 I-0.12500000 J0.00000000
F30.00000000
G1 X3.09500000 Y3.09500000
F10.00000000
G1 Z-0.75500000
F30.00000000
G1 X3.22000000 Y3.09500000
G3 X3.22000000 Y3.09500000 I-0.12500000 J0.00000000
G1 Z0.10000000
G0 Z1.00000000
(Lip pocket x)
G0 X2.72000000 Y2.72000000
G0 Z0.10000000
G0 X2.72000000 Y2.72000000
F10.00000000
G1 Z-0.01600000
F30.00000000
G1 X15.09500000
G1 Y2.84500000
G1 X2.72000000
G1 Y2.97000000
G1 X15.09500000
G1 Y3.09500000
G1 X2.72000000
G0 X2.72000000 Y2.72000000
F10.00000000
G1 Z-0.11600000
F30.00000000
G1 X15.09500000
G1 Y2.84500000
G1 X2.72000000
G1 Y2.97000000
G1 X15.09500000
G1 Y3.09500000
G1 X2.72000000
G0 X2.72000000 Y2.72000000
F10.00000000
G1 Z-0.21600000
F30.00000000
G1 X15.09500000
G1 Y2.84500000
G1 X2.72000000
G1 Y2.97000000
G1 X15.09500000
G1 Y3.09500000
G1 X2.72000000
G0 X2.72000000 Y2.72000000
F10.00000000
G1 Z-0.31600000
F30.00000000
G1 X15.09500000
G1 Y2.84500000
G1 X2.72000000
G1 Y2.97000000
G1 X15.09500000
G1 Y3.09500000
G1 X2.72000000
G0 X2.72000000 Y2.72000000
F10.00000000
G1 Z-0.41600000
F30.00000000
G1 X15.09500000
G1 Y2.84500000
G1 X2.72000000
G1 Y2.97000000
G1 X15.09500000
G1 Y3.09500000
G1 X2.72000000
G0 X2.72000000 Y2.72000000
F10.00000000
G1 Z-0.51600000
F30.00000000
G1 X15.09500000
G1 Y2.84500000
G1 X2.72000000
G1 Y2.97000000
G1 X15.09500000
G1 Y3.09500000
G1 X2.72000000
G1 Z0.10000000
G0 Z1.00000000
(Lip pocket y)
G0 X2.72000000 Y2.72000000
G0 Z0.10000000
G0 X2.72000000 Y2.72000000
F10.00000000
G1 Z-0.01600000
F30.00000000
G1 Y15.09500000
G1 X2.84500000
G1 Y2.72000000
G1 X2.97000000
G1 Y15.09500000
G1 X3.09500000
G1 Y2.72000000
G0 X2.72000000 Y2.72000000
F10.00000000
G1 Z-0.11600000
F30.00000000
G1 Y15.09500000
G1 X2.84500000
G1 Y2.72000000
G1 X2.97000000
G1 Y15.09500000
G1 X3.09500000
G1 Y2.72000000
G0 X2.72000000 Y2.72000000
F10.00000000
G1 Z-0.21600000
F30.00000000
G1 Y15.09500000
G1 X2.84500000
G1 Y2.72000000
G1 X2.97000000
G1 Y15.09500000
G1 X3.09500000
G1 Y2.72000000
G0 X2.72000000 Y2.72000000
F10.00000000
G1 Z-0.31600000
F30.00000000
G1 Y15.09500000
G1 X2.84500000
G1 Y2.72000000
G1 X2.97000000
G1 Y15.09500000
G1 X3.09500000
G1 Y2.72000000
G0 X2.72000000 Y2.72000000
F10.00000000
G1 Z-0.41600000
F30.00000000
G1 Y15.09500000
G1 X2.84500000
G1 Y2.72000000
G1 X2.97000000
G1 Y15.09500000
G1 X3.09500000
G1 Y2.72000000
G0 X2.72000000 Y2.72000000
F10.00000000
G1 Z-0.51600000
F30.00000000
G1 Y15.09500000
G1 X2.84500000
G1 Y2.72000000
G1 X2.97000000
G1 Y15.09500000
G1 X3.09500000
G1 Y2.72000000
G1 Z0.10000000
G0 Z1.00000000
(Profile)
G0 X0.00000000 Y0.00000000
G0 Z0.10000000
F10.00000000
G1 Z-0.05500000
F30.00000000
G1 X0.00000000 Y0.00000000
G1 X15.22000000 Y0.00000000
G1 X15.22000000 Y3.22000000
G1 X3.22000000 Y3.22000000
G1 X3.22000000 Y15.22000000
G1 X0.00000000 Y15.22000000
G1 X0.00000000 Y0.00000000
G1 X0.00000000 Y0.00000000
F10.00000000
G1 Z-0.15500000
F30.00000000
G1 X0.00000000 Y0.00000000
G1 X15.22000000 Y0.00000000
G1 X15.22000000 Y3.22000000
G1 X3.22000000 Y3.22000000
G1 X3.22000000 Y15.22000000
G1 X0.00000000 Y15.22000000
G1 X0.00000000 Y0.00000000
G1 X0.00000000 Y0.00000000
F10.00000000
G1 Z-0.25500000
F30.00000000
G1 X0.00000000 Y0.00000000
G1 X15.22000000 Y0.00000000
G1 X15.22000000 Y3.22000000
G1 X3.22000000 Y3.22000000
G1 X3.22000000 Y15.22000000
G1 X0.00000000 Y15.22000000
G1 X0.00000000 Y0.00000000
G1 X0.00000000 Y0.00000000
F10.00000000
G1 Z-0.35500000
F30.00000000
G1 X0.00000000 Y0.00000000
G1 X15.22000000 Y0.00000000
G1 X15.22000000 Y3.22000000
G1 X3.22000000 Y3.22000000
G1 X3.22000000 Y15.22000000
G1 X0.00000000 Y15.22000000
G1 X0.00000000 Y0.00000000
G1 X0.00000000 Y0.00000000
F10.00000000
G1 Z-0.45500000
F30.00000000
G1 X0.00000000 Y0.00000000
G1 X15.22000000 Y0.00000000
G1 X15.22000000 Y3.22000000
G1 X3.22000000 Y3.22000000
G1 X3.22000000 Y15.22000000
G1 X0.00000000 Y15.22000000
G1 X0.00000000 Y0.00000000
G1 X0.00000000 Y0.00000000
F10.00000000
G1 Z-0.55500000
F30.00000000
G1 X0.00000000 Y0.00000000
G1 X15.22000000 Y0.00000000
G1 X15.22000000 Y3.22000000
G1 X3.22000000 Y3.22000000
G1 X3.22000000 Y15.22000000
G1 X0.00000000 Y15.22000000
G1 X0.00000000 Y0.00000000
G1 X0.00000000 Y0.00000000
F10.00000000
G1 Z-0.65500000
F30.00000000
G1 X0.00000000 Y0.00000000
G1 X15.22000000 Y0.00000000
G1 X15.22000000 Y3.22000000
G1 X3.22000000 Y3.22000000
G1 X3.22000000 Y15.22000000
G1 X0.00000000 Y15.22000000
G1 X0.00000000 Y0.00000000
G1 X0.00000000 Y0.00000000
F10.00000000
G1 Z-0.75500000
F30.00000000
G1 X7.43500000 Y0.00000000
F10.00000000
G1 Z-0.65500000
F30.00000000
G1 X7.78500000 Y0.00000000
F10.00000000
G1 Z-0.75500000
F30.00000000
G1 X15.22000000 Y0.00000000
G1 X15.22000000 Y1.43500000
F10.00000000
G1 Z-0.65500000
F30.00000000
G1 X15.22000000 Y1.78500000
F10.00000000
G1 Z-0.75500000
F30.00000000
G1 X15.22000000 Y3.22000000
G1 X3.22000000 Y3.22000000
G1 X3.22000000 Y15.22000000
G1 X1.78500000 Y15.22000000
F10.00000000
G1 Z-0.65500000
F30.00000000
G1 X1.43500000 Y15.22000000
F10.00000000
G1 Z-0.75500000
F30.00000000
G1 X0.00000000 Y15.22000000
G1 X0.00000000 Y7.78500000
F10.00000000
G1 Z-0.65500000
F30.00000000
G1 X0.00000000 Y7.43500000
F10.00000000
G1 Z-0.75500000
F30.00000000
G1 X0.00000000 Y0.00000000
G1 X0.00000000 Y0.00000000
G1 Z0.10000000
G0 Z1.00000000
(Safe)
G0 Z1.00000000
(-- epilogue begin --)
M5 (Spindle off)
M2 (End program)
(-- epilogue end --)
